; generated by Slic3r 1.2.9 on 2015-09-07 at 16:30:13

; external perimeters extrusion width = 0.50mm
; perimeters extrusion width = 0.50mm
; infill extrusion width = 0.50mm
; solid infill extrusion width = 0.50mm
; top infill extrusion width = 0.50mm
; support material extrusion width = 0.25mm

M107
M190 S105 ; set bed temperature
M104 S240 ; set temperature
G28 X0 Y0
G28 Z0
G1 Z0.3 F200
G1 X15 Y20 F12000
M109 S240 ; wait for temperature to be reached
G21 ; set units to millimeters
G90 ; use absolute coordinates
M82 ; use absolute distances for extrusion
G92 E0
G1 Z0.300 F15000.000
G1 E-2.00000 F4800.00000
G92 E0
G1 X88.103 Y92.824 F15000.000
G1 E2.00000 F4800.00000
G1 X89.849 Y91.389 E2.11052 F600.000
G1 X92.110 Y90.626 E2.22723
G1 X102.923 Y89.117 E2.76109
G1 X103.813 Y89.055 E2.80470
G1 X114.533 Y89.055 E3.32890
G1 X115.451 Y89.121 E3.37393 F600.000
G1 X125.918 Y90.630 E3.89108
G1 X128.064 Y91.341 E4.00160
G1 X129.832 Y92.749 E4.11212
G1 X131.004 Y94.682 E4.22264
G1 X131.436 Y97.000 E4.33795
G1 X131.436 Y121.000 E5.51154
G1 X131.039 Y123.225 E5.62207
G1 X129.897 Y125.176 E5.73259
G1 X128.151 Y126.611 E5.84311
G1 X125.927 Y127.368 E5.95799
G1 X115.562 Y128.878 E6.47021
G1 X114.634 Y128.945 E6.51568
G1 X103.914 Y128.945 E7.03988
G1 X102.653 Y128.892 E7.10159
G1 X102.027 Y128.831 E7.13235
G1 X92.065 Y127.367 E7.62475
G1 X89.921 Y126.651 E7.73528
G1 X88.157 Y125.238 E7.84580
G1 X86.990 Y123.302 E7.95632
G1 X86.564 Y121.000 E8.07081
G1 X86.564 Y97.000 E9.24440
G1 X86.961 Y94.775 E9.35492
G1 X88.065 Y92.889 E9.46178
G1 E7.46178 F4800.00000
G92 E0
G1 X124.314 Y120.314 F15000.000
G1 E2.00000 F4800.00000
G1 X119.449 Y120.314 E2.23793 F960.000
G1 X119.449 Y117.008 E2.39960
G1 X119.731 Y117.197 E2.41622
G1 X120.029 Y117.344 E2.43245
G1 X120.343 Y117.451 E2.44868
G1 X120.669 Y117.515 E2.46490
G1 X121.000 Y117.537 E2.48113
G1 X121.331 Y117.515 E2.49736
G1 X121.657 Y117.451 E2.51359
G1 X121.971 Y117.344 E2.52982
G1 X122.269 Y117.197 E2.54605
G1 X122.545 Y117.013 E2.56228
G1 X122.794 Y116.794 E2.57850
G1 X123.013 Y116.544 E2.59473
G1 X123.197 Y116.269 E2.61096
G1 X123.344 Y115.971 E2.62718
G1 X123.451 Y115.657 E2.64342
G1 X123.515 Y115.331 E2.65965
G1 X123.537 Y115.000 E2.67587
G1 X123.515 Y114.669 E2.69210
G1 X123.451 Y114.343 E2.70833
G1 X123.344 Y114.029 E2.72456
G1 X123.197 Y113.731 E2.74079
G1 X123.013 Y113.456 E2.75701
G1 X122.794 Y113.206 E2.77324
G1 X122.545 Y112.987 E2.78947
G1 X122.269 Y112.803 E2.80570
G1 X121.971 Y112.656 E2.82192
G1 X121.657 Y112.549 E2.83815
G1 X121.331 Y112.485 E2.85438
G1 X121.000 Y112.463 E2.87061
G1 X120.669 Y112.485 E2.88684
G1 X120.343 Y112.549 E2.90306
G1 X120.029 Y112.656 E2.91929
G1 X119.731 Y112.803 E2.93552
G1 X119.449 Y112.992 E2.95215
G1 X119.449 Y105.008 E3.34254
G1 X119.731 Y105.197 E3.35916
G1 X120.029 Y105.344 E3.37539
G1 X120.343 Y105.451 E3.39162
G1 X120.669 Y105.515 E3.40785
G1 X121.000 Y105.537 E3.42408
G1 X121.331 Y105.515 E3.44031
G1 X121.657 Y105.451 E3.45653
G1 X121.971 Y105.344 E3.47276
G1 X122.269 Y105.197 E3.48899
G1 X122.545 Y105.013 E3.50522
G1 X122.794 Y104.794 E3.52144
G1 X123.013 Y104.544 E3.53767
G1 X123.197 Y104.269 E3.55390
G1 X123.344 Y103.971 E3.57012
G1 X123.451 Y103.657 E3.58636
G1 X123.515 Y103.331 E3.60259
G1 X123.537 Y103.000 E3.61881
G1 X123.515 Y102.669 E3.63504
G1 X123.451 Y102.343 E3.65127
G1 X123.344 Y102.029 E3.66750
G1 X123.197 Y101.731 E3.68373
G1 X123.013 Y101.456 E3.69995
G1 X122.794 Y101.206 E3.71618
G1 X122.544 Y100.987 E3.73241
G1 X122.269 Y100.803 E3.74864
G1 X121.971 Y100.656 E3.76486
G1 X121.657 Y100.549 E3.78110
G1 X121.331 Y100.485 E3.79732
G1 X121.000 Y100.463 E3.81355
G1 X120.669 Y100.485 E3.82978
G1 X120.343 Y100.549 E3.84600
G1 X120.029 Y100.656 E3.86223
G1 X119.731 Y100.803 E3.87846
G1 X119.449 Y100.992 E3.89509
G1 X119.449 Y97.686 E4.05676
G1 X124.314 Y97.686 E4.29468
G1 X124.314 Y120.239 E5.39755
G1 X124.750 Y120.750 F15000.000
G1 X119.013 Y120.750 E5.67809 F780.000
G1 X119.013 Y116.133 E5.90385
G1 X119.199 Y116.077 E5.91333
G1 X119.334 Y116.279 E5.92521
G1 X119.515 Y116.485 E5.93865
G1 X119.721 Y116.666 E5.95208
G1 X119.950 Y116.819 E5.96551
G1 X120.196 Y116.941 E5.97895
G1 X120.456 Y117.029 E5.99239
G1 X120.726 Y117.083 E6.00582
G1 X121.000 Y117.101 E6.01926
G1 X121.274 Y117.083 E6.03269
G1 X121.544 Y117.029 E6.04613
G1 X121.804 Y116.941 E6.05957
G1 X122.050 Y116.819 E6.07300
G1 X122.279 Y116.666 E6.08644
G1 X122.485 Y116.485 E6.09987
G1 X122.666 Y116.279 E6.11331
G1 X122.819 Y116.050 E6.12674
G1 X122.941 Y115.804 E6.14018
G1 X123.029 Y115.544 E6.15362
G1 X123.083 Y115.274 E6.16705
G1 X123.101 Y115.000 E6.18049
G1 X123.083 Y114.726 E6.19392
G1 X123.029 Y114.456 E6.20736
G1 X122.941 Y114.196 E6.22080
G1 X122.819 Y113.950 E6.23423
G1 X122.666 Y113.721 E6.24767
G1 X122.485 Y113.515 E6.26110
G1 X122.279 Y113.334 E6.27454
G1 X122.050 Y113.181 E6.28797
G1 X121.804 Y113.059 E6.30141
G1 X121.544 Y112.971 E6.31485
G1 X121.274 Y112.917 E6.32828
G1 X121.000 Y112.899 E6.34172
G1 X120.726 Y112.917 E6.35515
G1 X120.456 Y112.971 E6.36859
G1 X120.196 Y113.059 E6.38202
G1 X119.950 Y113.181 E6.39546
G1 X119.721 Y113.334 E6.40889
G1 X119.515 Y113.515 E6.42233
G1 X119.334 Y113.721 E6.43577
G1 X119.199 Y113.923 E6.44764
G1 X119.013 Y113.867 E6.45712
G1 X119.013 Y104.133 E6.93311
G1 X119.199 Y104.077 E6.94258
G1 X119.334 Y104.279 E6.95446
G1 X119.515 Y104.485 E6.96790
G1 X119.721 Y104.666 E6.98133
G1 X119.950 Y104.819 E6.99477
G1 X120.196 Y104.941 E7.00820
G1 X120.456 Y105.029 E7.02164
G1 X120.726 Y105.083 E7.03507
G1 X121.000 Y105.101 E7.04851
G1 X121.274 Y105.083 E7.06195
G1 X121.544 Y105.029 E7.07538
G1 X121.804 Y104.941 E7.08882
G1 X122.050 Y104.819 E7.10225
G1 X122.279 Y104.666 E7.11569
G1 X122.485 Y104.485 E7.12912
G1 X122.666 Y104.279 E7.14256
G1 X122.819 Y104.050 E7.15599
G1 X122.941 Y103.804 E7.16943
G1 X123.029 Y103.544 E7.18287
G1 X123.083 Y103.274 E7.19630
G1 X123.101 Y103.000 E7.20974
G1 X123.083 Y102.726 E7.22317
G1 X123.029 Y102.456 E7.23661
G1 X122.941 Y102.196 E7.25005
G1 X122.819 Y101.950 E7.26348
G1 X122.666 Y101.721 E7.27692
G1 X122.485 Y101.515 E7.29036
G1 X122.279 Y101.334 E7.30379
G1 X122.050 Y101.181 E7.31722
G1 X121.804 Y101.059 E7.33066
G1 X121.544 Y100.971 E7.34410
G1 X121.274 Y100.917 E7.35753
G1 X121.000 Y100.899 E7.37097
G1 X120.726 Y100.917 E7.38441
G1 X120.456 Y100.971 E7.39784
G1 X120.196 Y101.059 E7.41128
G1 X119.950 Y101.181 E7.42471
G1 X119.721 Y101.334 E7.43815
G1 X119.515 Y101.515 E7.45158
G1 X119.334 Y101.721 E7.46502
G1 X119.199 Y101.923 E7.47689
G1 X119.013 Y101.867 E7.48637
G1 X119.013 Y97.250 E7.71214
G1 X124.750 Y97.250 E7.99267
G1 X124.750 Y120.675 E9.13814
G1 X124.317 Y120.500 F15000.000
G1 E7.13814 F4800.00000
G92 E0
G1 X119.045 Y115.862 F15000.000
G1 E2.00000 F4800.00000
G1 X118.990 Y115.523 E2.01679 F780.000
G1 X118.957 Y115.013 E2.04181
G1 X118.990 Y114.477 E2.06805
G1 X119.045 Y114.138 E2.08485
G1 E0.08485 F4800.00000
G92 E0
G1 X119.045 Y103.862 F15000.000
G1 E2.00000 F4800.00000
G1 X118.990 Y103.523 E2.01679 F780.000
G1 X118.957 Y103.013 E2.04181
G1 X118.990 Y102.477 E2.06805
G1 X119.045 Y102.138 E2.08485
G1 E0.08485 F4800.00000
G92 E0
G1 X120.116 Y105.764 F15000.000
G1 E2.00000 F4800.00000
G1 X120.260 Y106.287 E2.02650 F1200.000
G1 X120.437 Y107.140 E2.06909
G1 X120.549 Y108.003 E2.11169
G1 X120.597 Y108.873 E2.15428
G1 X120.579 Y109.744 E2.19688
G1 X120.496 Y110.611 E2.23947
G1 X120.348 Y111.470 E2.28207
G1 X120.161 Y112.220 E2.31989
G1 X120.642 Y112.115 F15000.000
G1 X120.828 Y111.289 E2.36128 F1200.000
G1 X120.957 Y110.428 E2.40388
G1 X120.999 Y109.994 E2.42518
G1 X121.034 Y109.124 E2.46778
G1 X121.006 Y108.253 E2.51037
G1 X120.916 Y107.387 E2.55297
G1 X120.763 Y106.529 E2.59557
G1 X120.601 Y105.879 E2.62831
G1 X121.060 Y105.904 F15000.000
G1 X121.233 Y106.653 E2.66588 F1200.000
G1 X121.372 Y107.513 E2.70847
G1 X121.419 Y107.946 E2.72977
G1 X121.467 Y108.815 E2.77237
G1 X121.455 Y109.686 E2.81497
G1 X121.381 Y110.554 E2.85756
G1 X121.247 Y111.415 E2.90016
G1 X121.095 Y112.098 E2.93438
G1 X121.532 Y112.147 F15000.000
G1 X121.690 Y111.420 E2.97077 F1200.000
G1 X121.819 Y110.558 E3.01336
G1 X121.890 Y109.690 E3.05596
G1 X121.903 Y108.819 E3.09856
G1 X121.857 Y107.949 E3.14115
G1 X121.812 Y107.516 E3.16246
G1 X121.678 Y106.655 E3.20505
G1 X121.499 Y105.860 E3.24493
G1 X121.921 Y105.752 F15000.000
G1 X122.098 Y106.537 E3.28427 F1200.000
G1 X122.236 Y107.397 E3.32687
G1 X122.317 Y108.264 E3.36947
G1 X122.341 Y109.135 E3.41206
G1 X122.308 Y110.005 E3.45466
G1 X122.219 Y110.872 E3.49726
G1 X122.073 Y111.731 E3.53986
G1 X121.953 Y112.259 E3.56634
G1 X122.358 Y112.434 F15000.000
G1 X122.562 Y111.493 E3.61343 F1200.000
G1 X122.688 Y110.631 E3.65603
G1 X122.759 Y109.763 E3.69863
G1 X122.775 Y108.892 E3.74123
G1 X122.737 Y108.022 E3.78382
G1 X122.643 Y107.155 E3.82642
G1 X122.495 Y106.297 E3.86902
G1 X122.326 Y105.582 E3.90496
G1 X122.714 Y105.345 F15000.000
G1 X122.952 Y106.364 E3.95612 F1200.000
G1 X123.092 Y107.223 E3.99871
G1 X123.178 Y108.090 E4.04131
G1 X123.212 Y108.961 E4.08391
G1 X123.192 Y109.832 E4.12651
G1 X123.118 Y110.700 E4.16911
G1 X122.992 Y111.562 E4.21171
G1 X122.746 Y112.676 E4.26753
G1 X123.108 Y113.003 F15000.000
G1 X123.364 Y111.937 E4.32113 F1200.000
G1 X123.510 Y111.078 E4.36373
G1 X123.563 Y110.646 E4.38503
G1 X123.631 Y109.777 E4.42763
G1 X123.647 Y108.906 E4.47023
G1 X123.636 Y108.471 E4.49153
G1 X123.574 Y107.602 E4.53413
G1 X123.461 Y106.738 E4.57673
G1 X123.297 Y105.883 E4.61933
G1 X123.079 Y105.030 E4.66235
G1 X123.410 Y104.617 F15000.000
G1 X123.704 Y105.707 E4.71758 F1200.000
G1 X123.874 Y106.562 E4.76018
G1 X123.944 Y107.027 E4.78320
G1 E2.78320 F4800.00000
G92 E0
G1 X123.944 Y104.889 F15000.000
G1 E2.00000 F4800.00000
G1 X123.819 Y104.466 E2.02158 F1200.000
G1 E0.02158 F4800.00000
G92 E0
G1 X119.819 Y106.322 F15000.000
G1 E2.00000 F4800.00000
G1 X119.924 Y106.773 E2.02263 F1200.000
G1 X120.070 Y107.632 E2.06523
G1 X120.118 Y108.065 E2.08653
G1 X120.162 Y108.935 E2.12912
G1 X120.159 Y109.370 E2.15042
G1 X120.101 Y110.240 E2.19302
G1 X119.976 Y111.102 E2.23561
G1 X119.819 Y111.812 E2.27120
G1 E0.27120 F4800.00000
G92 E0
G1 X123.440 Y113.428 F15000.000
G1 E2.00000 F4800.00000
G1 X123.757 Y112.191 E2.06247 F1200.000
G1 X123.944 Y111.104 E2.11641
G1 E0.11641 F4800.00000
G92 E0
G1 X123.944 Y113.252 F15000.000
G1 E2.00000 F4800.00000
G1 X123.865 Y113.527 E2.01398 F1200.000
G1 X123.823 Y113.909 F15000.000
G1 X123.912 Y114.605 E2.08766 F600.000
G1 X123.926 Y114.989 E2.12805
G1 X123.912 Y115.395 E2.17079
G1 X123.823 Y116.091 E2.24446
G1 X123.641 Y116.437 F15000.000
G1 X123.065 Y117.488 E2.30307 F1200.000
G1 X122.599 Y118.223 E2.34567
G1 X122.094 Y118.933 E2.38827
G1 X121.269 Y119.944 E2.45208
G1 X121.843 Y119.944 F15000.000
G1 X122.491 Y119.130 E2.50296 F1200.000
G1 X122.993 Y118.418 E2.54555
G1 X123.457 Y117.681 E2.58815
G1 X123.944 Y116.802 E2.63732
G1 X123.944 Y117.710 F15000.000
G1 X123.687 Y118.142 E2.66186 F1200.000
G1 X123.212 Y118.871 E2.70446
G1 X122.409 Y119.944 E2.76996
G1 X122.965 Y119.944 F15000.000
G1 X123.499 Y119.222 E2.81387 F1200.000
G1 X123.944 Y118.551 E2.85322
G1 X123.944 Y119.341 F15000.000
G1 X123.512 Y119.944 E2.88948 F1200.000
G1 E0.88948 F4800.00000
G92 E0
G1 X122.591 Y117.427 F15000.000
G1 E2.00000 F4800.00000
G1 X122.273 Y117.926 E2.02894 F1200.000
G1 X121.771 Y118.638 E2.07154
G1 X121.230 Y119.321 E2.11414
G1 X120.680 Y119.944 E2.15479
G1 X120.078 Y119.944 F15000.000
G1 X120.416 Y119.589 E2.17878 F1200.000
G1 X120.988 Y118.931 E2.22138
G1 X121.521 Y118.243 E2.26398
G1 X121.847 Y117.777 E2.29178
G1 X121.235 Y117.893 F15000.000
G1 X120.545 Y118.782 E2.34680 F1200.000
G1 X119.819 Y119.584 E2.39974
G1 X119.819 Y118.949 F15000.000
G1 X120.182 Y118.537 E2.42657 F1200.000
G1 X120.699 Y117.888 E2.46713
G1 X120.218 Y117.799 F15000.000
G1 X119.819 Y118.290 E2.49805 F1200.000
G1 E0.49805 F4800.00000
G92 E0
G1 X123.823 Y104.091 F15000.000
G1 E2.00000 F4800.00000
G1 X123.912 Y103.395 E2.07368 F600.000
G1 X123.926 Y103.011 E2.11407
G1 X123.912 Y102.605 E2.15680
G1 X123.823 Y101.909 E2.23048
G1 X123.574 Y101.575 F15000.000
G1 X122.968 Y100.498 E2.29090 F1200.000
G1 X122.492 Y99.768 E2.33350
G1 X121.708 Y98.723 E2.39739
G1 X121.132 Y98.056 E2.44048
G1 X121.714 Y98.056 F15000.000
G1 X122.354 Y98.838 E2.48992 F1200.000
G1 X122.866 Y99.543 E2.53252
G1 X123.341 Y100.273 E2.57512
G1 X123.944 Y101.342 E2.63511
G1 X123.944 Y100.436 F15000.000
G1 X123.650 Y99.944 E2.66316 F1200.000
G1 X123.170 Y99.216 E2.70576
G1 X122.654 Y98.514 E2.74836
G1 X122.285 Y98.056 E2.77714
G1 X122.847 Y98.056 F15000.000
G1 X123.402 Y98.789 E2.82211 F1200.000
G1 X123.944 Y99.595 E2.86961
G1 X123.944 Y98.806 F15000.000
G1 X123.399 Y98.056 E2.91494 F1200.000
G1 E0.91494 F4800.00000
G92 E0
G1 X122.437 Y100.473 F15000.000
G1 E2.00000 F4800.00000
G1 X122.048 Y99.892 E2.03419 F1200.000
G1 X121.527 Y99.194 E2.07678
G1 X120.968 Y98.525 E2.11938
G1 X120.535 Y98.056 E2.15062
G1 X119.924 Y98.056 F15000.000
G1 X120.423 Y98.571 E2.18572 F1200.000
G1 X120.995 Y99.228 E2.22832
G1 X121.719 Y100.184 E2.28696
G1 X121.122 Y100.100 F15000.000
G1 X120.378 Y99.174 E2.34502 F1200.000
G1 X119.819 Y98.568 E2.38536
G1 X119.819 Y99.204 F15000.000
G1 X120.245 Y99.689 E2.41695 F1200.000
G1 X120.592 Y100.122 E2.44409
G1 X120.125 Y100.233 F15000.000
G1 X119.819 Y99.861 E2.46761 F1200.000
G1 E0.46761 F4800.00000
G92 E0
G1 X98.551 Y120.314 F15000.000
G1 E2.00000 F4800.00000
G1 X93.686 Y120.314 E2.23793 F960.000
G1 X93.686 Y97.686 E3.34447
G1 X98.551 Y97.686 E3.58239
G1 X98.551 Y100.992 E3.74406
G1 X98.269 Y100.803 E3.76069
G1 X97.971 Y100.656 E3.77691
G1 X97.657 Y100.549 E3.79315
G1 X97.331 Y100.485 E3.80937
G1 X97.000 Y100.463 E3.82560
G1 X96.669 Y100.485 E3.84183
G1 X96.343 Y100.549 E3.85805
G1 X96.029 Y100.656 E3.87429
G1 X95.731 Y100.803 E3.89051
G1 X95.455 Y100.987 E3.90674
G1 X95.206 Y101.206 E3.92297
G1 X94.987 Y101.456 E3.93920
G1 X94.803 Y101.731 E3.95542
G1 X94.656 Y102.029 E3.97165
G1 X94.549 Y102.343 E3.98788
G1 X94.485 Y102.669 E4.00411
G1 X94.463 Y103.000 E4.02034
G1 X94.485 Y103.331 E4.03656
G1 X94.549 Y103.657 E4.05279
G1 X94.656 Y103.971 E4.06903
G1 X94.803 Y104.269 E4.08525
G1 X94.987 Y104.544 E4.10148
G1 X95.206 Y104.794 E4.11771
G1 X95.455 Y105.013 E4.13393
G1 X95.731 Y105.197 E4.15016
G1 X96.029 Y105.344 E4.16639
G1 X96.343 Y105.451 E4.18262
G1 X96.669 Y105.515 E4.19884
G1 X97.000 Y105.537 E4.21507
G1 X97.331 Y105.515 E4.23130
G1 X97.657 Y105.451 E4.24753
G1 X97.971 Y105.344 E4.26376
G1 X98.269 Y105.197 E4.27999
G1 X98.551 Y105.008 E4.29661
G1 X98.551 Y112.992 E4.68700
G1 X98.269 Y112.803 E4.70363
G1 X97.971 Y112.656 E4.71985
G1 X97.657 Y112.549 E4.73609
G1 X97.331 Y112.485 E4.75231
G1 X97.000 Y112.463 E4.76854
G1 X96.669 Y112.485 E4.78477
G1 X96.343 Y112.549 E4.80100
G1 X96.029 Y112.656 E4.81723
G1 X95.731 Y112.803 E4.83345
G1 X95.455 Y112.987 E4.84968
G1 X95.206 Y113.206 E4.86591
G1 X94.987 Y113.456 E4.88214
G1 X94.803 Y113.731 E4.89836
G1 X94.656 Y114.029 E4.91459
G1 X94.549 Y114.343 E4.93082
G1 X94.485 Y114.669 E4.94705
G1 X94.463 Y115.000 E4.96328
G1 X94.485 Y115.331 E4.97950
G1 X94.549 Y115.657 E4.99573
G1 X94.656 Y115.971 E5.01197
G1 X94.803 Y116.269 E5.02819
G1 X94.987 Y116.544 E5.04442
G1 X95.206 Y116.794 E5.06065
G1 X95.455 Y117.013 E5.07687
G1 X95.731 Y117.197 E5.09310
G1 X96.029 Y117.344 E5.10933
G1 X96.343 Y117.451 E5.12556
G1 X96.669 Y117.515 E5.14179
G1 X97.000 Y117.537 E5.15802
G1 X97.331 Y117.515 E5.17425
G1 X97.657 Y117.451 E5.19047
G1 X97.971 Y117.344 E5.20670
G1 X98.269 Y117.197 E5.22293
G1 X98.551 Y117.008 E5.23955
G1 X98.551 Y120.239 E5.39755
G1 X98.987 Y120.750 F15000.000
G1 X93.250 Y120.750 E5.67809 F780.000
G1 X93.250 Y97.250 E6.82723
G1 X98.987 Y97.250 E7.10776
G1 X98.987 Y101.867 E7.33353
G1 X98.801 Y101.923 E7.34300
G1 X98.666 Y101.721 E7.35488
G1 X98.485 Y101.515 E7.36832
G1 X98.279 Y101.334 E7.38175
G1 X98.050 Y101.181 E7.39519
G1 X97.804 Y101.059 E7.40862
G1 X97.544 Y100.971 E7.42206
G1 X97.274 Y100.917 E7.43549
G1 X97.000 Y100.899 E7.44893
G1 X96.726 Y100.917 E7.46237
G1 X96.456 Y100.971 E7.47580
G1 X96.196 Y101.059 E7.48924
G1 X95.950 Y101.181 E7.50267
