; generated by Slic3r 1.2.9 on 2015-09-07 at 18:50:16

; external perimeters extrusion width = 0.50mm
; perimeters extrusion width = 0.50mm
; infill extrusion width = 0.50mm
; solid infill extrusion width = 0.50mm
; top infill extrusion width = 0.50mm
; support material extrusion width = 0.25mm

M107
M190 S105 ; set bed temperature
M104 S240 ; set temperature
G28 X0 Y0
G28 Z0
G1 Z0.3 F200
G1 X15 Y20 F12000
M109 S240 ; wait for temperature to be reached
G21 ; set units to millimeters
G90 ; use absolute coordinates
M82 ; use absolute distances for extrusion
G92 E0
G1 Z0.300 F15000.000
G1 E-2.00000 F4800.00000
G92 E0
G1 X76.251 Y84.134 F15000.000
G1 E2.00000 F4800.00000
G1 X76.915 Y83.555 E2.04312 F600.000
G1 X77.701 Y82.932 E2.09214
G1 X78.779 Y82.172 E2.15665
G1 X79.360 Y81.805 E2.19025
G1 X80.228 Y81.304 E2.23929
G1 X81.406 Y80.711 E2.30375
G1 X82.034 Y80.432 E2.33735
G1 X82.967 Y80.064 E2.38642
G1 X84.220 Y79.650 E2.45093
G1 X85.188 Y79.390 E2.49992
G1 X86.168 Y79.178 E2.54898
G1 X86.845 Y79.061 E2.58258
G1 X87.840 Y78.930 E2.63164
G1 X88.840 Y78.849 E2.68071
G1 X90.000 Y78.814 E2.73745
G1 X128.158 Y78.816 E4.60337
G1 X128.845 Y78.833 E4.63698 F600.000
G1 X129.845 Y78.899 E4.68598
G1 X131.155 Y79.061 E4.75049
G1 X131.832 Y79.178 E4.78410
G1 X132.812 Y79.390 E4.83315
G1 X134.083 Y79.742 E4.89764
G1 X134.736 Y79.958 E4.93124
G1 X135.674 Y80.311 E4.98026
G1 X136.594 Y80.711 E5.02932
G1 X137.493 Y81.154 E5.07833
G1 X138.640 Y81.805 E5.14283
G1 X139.221 Y82.172 E5.17643
G1 X140.046 Y82.744 E5.22549
G1 X141.085 Y83.555 E5.28996
G1 X141.839 Y84.216 E5.33901
G1 X142.337 Y84.689 E5.37261
G1 X143.247 Y85.645 E5.43710
G1 X143.895 Y86.409 E5.48612
G1 X144.506 Y87.204 E5.53517
G1 X144.902 Y87.766 E5.56878
G1 X145.445 Y88.610 E5.61784
G1 X146.096 Y89.757 E5.68234
G1 X146.539 Y90.656 E5.73134
G1 X146.939 Y91.576 E5.78041
G1 X147.292 Y92.514 E5.82943
G1 X147.508 Y93.167 E5.86305
G1 X147.783 Y94.132 E5.91213
G1 X148.059 Y95.345 E5.97293
G1 X150.328 Y107.576 E6.58124
G1 X150.436 Y108.750 E6.63888
G1 X150.436 Y132.750 E7.81247
G1 X150.039 Y134.975 E7.92299
G1 X148.897 Y136.926 E8.03351
G1 X147.151 Y138.361 E8.14404
G1 X144.000 Y139.186 E8.30332
G1 X74.000 Y139.186 E11.72629
G1 X71.775 Y138.789 E11.83681
G1 X69.824 Y137.647 E11.94733
G1 X68.389 Y135.901 E12.05785
G1 X67.564 Y132.750 E12.21714
G1 X67.564 Y108.750 E13.39073
G1 X67.672 Y107.576 E13.44837
G1 X69.941 Y95.345 E14.05668
G1 X70.140 Y94.438 E14.10209
G1 X70.400 Y93.470 E14.15108
G1 X70.814 Y92.217 E14.21559
G1 X71.182 Y91.284 E14.26466
G1 X71.461 Y90.656 E14.29827
G1 X71.905 Y89.757 E14.34727
G1 X72.392 Y88.880 E14.39634
G1 X73.098 Y87.766 E14.46083
G1 X73.682 Y86.951 E14.50987
G1 X74.105 Y86.409 E14.54349
G1 X74.754 Y85.645 E14.59250
G1 X75.439 Y84.913 E14.64155
G1 X76.195 Y84.185 E14.69286
G1 E12.69286 F4800.00000
G92 E0
G1 X141.794 Y127.544 F15000.000
G1 E2.00000 F4800.00000
G1 X141.545 Y127.763 E2.01623 F780.000
G1 X141.269 Y127.947 E2.03245
G1 X140.971 Y128.094 E2.04868
G1 X140.657 Y128.201 E2.06491
G1 X140.331 Y128.265 E2.08114
G1 X140.000 Y128.287 E2.09737
G1 X139.669 Y128.265 E2.11360
G1 X139.343 Y128.201 E2.12982
G1 X139.029 Y128.094 E2.14606
G1 X138.731 Y127.947 E2.16229
G1 X138.456 Y127.763 E2.17851
G1 X138.206 Y127.544 E2.19474
G1 X137.987 Y127.295 E2.21096
G1 X137.803 Y127.019 E2.22719
G1 X137.656 Y126.721 E2.24342
G1 X137.549 Y126.407 E2.25965
G1 X137.485 Y126.081 E2.27588
G1 X137.463 Y125.750 E2.29211
G1 X137.485 Y125.419 E2.30833
G1 X137.549 Y125.093 E2.32456
G1 X137.656 Y124.779 E2.34080
G1 X137.803 Y124.481 E2.35702
G1 X137.987 Y124.205 E2.37325
G1 X138.206 Y123.956 E2.38948
G1 X138.456 Y123.737 E2.40570
G1 X138.731 Y123.553 E2.42193
G1 X139.029 Y123.406 E2.43815
G1 X139.343 Y123.299 E2.45439
G1 X139.669 Y123.235 E2.47062
G1 X140.000 Y123.213 E2.48684 F780.000
G1 X140.331 Y123.235 E2.50307
G1 X140.657 Y123.299 E2.51930
G1 X140.971 Y123.406 E2.53554
G1 X141.269 Y123.553 E2.55176
G1 X141.545 Y123.737 E2.56799
G1 X141.794 Y123.956 E2.58421
G1 X142.013 Y124.205 E2.60044
G1 X142.197 Y124.481 E2.61666
G1 X142.344 Y124.779 E2.63289
G1 X142.451 Y125.093 E2.64913
G1 X142.515 Y125.419 E2.66536
G1 X142.537 Y125.750 E2.68158
G1 X142.515 Y126.081 E2.69781
G1 X142.451 Y126.407 E2.71404
G1 X142.344 Y126.721 E2.73027
G1 X142.197 Y127.019 E2.74650
G1 X142.013 Y127.295 E2.76273
G1 X141.843 Y127.488 E2.77529
G1 X141.485 Y127.235 F15000.000
G1 X141.279 Y127.416 E2.78872 F780.000
G1 X141.050 Y127.569 E2.80215
G1 X140.804 Y127.691 E2.81559
G1 X140.544 Y127.779 E2.82903
G1 X140.274 Y127.833 E2.84246
G1 X140.000 Y127.851 E2.85590
G1 X139.726 Y127.833 E2.86934
G1 X139.456 Y127.779 E2.88277
G1 X139.196 Y127.691 E2.89621
G1 X138.950 Y127.569 E2.90965
G1 X138.721 Y127.416 E2.92308
G1 X138.515 Y127.235 E2.93651
G1 X138.334 Y127.029 E2.94995
G1 X138.181 Y126.800 E2.96338
G1 X138.059 Y126.554 E2.97682
G1 X137.971 Y126.294 E2.99026
G1 X137.917 Y126.024 E3.00369
G1 X137.899 Y125.750 E3.01713
G1 X137.917 Y125.476 E3.03057
G1 X137.971 Y125.206 E3.04400
G1 X138.059 Y124.946 E3.05744
G1 X138.181 Y124.700 E3.07087
G1 X138.334 Y124.471 E3.08431
G1 X138.515 Y124.265 E3.09774
G1 X138.721 Y124.084 E3.11118
G1 X138.950 Y123.931 E3.12461
G1 X139.196 Y123.809 E3.13805
G1 X139.456 Y123.721 E3.15149
G1 X139.726 Y123.667 E3.16492
G1 X140.000 Y123.649 E3.17836 F780.000
G1 X140.274 Y123.667 E3.19180
G1 X140.544 Y123.721 E3.20523
G1 X140.804 Y123.809 E3.21867
G1 X141.050 Y123.931 E3.23210
G1 X141.279 Y124.084 E3.24554
G1 X141.485 Y124.265 E3.25897
G1 X141.666 Y124.471 E3.27241
G1 X141.819 Y124.700 E3.28584
G1 X141.941 Y124.946 E3.29928
G1 X142.029 Y125.206 E3.31272
G1 X142.083 Y125.476 E3.32615
G1 X142.101 Y125.750 E3.33959
G1 X142.083 Y126.024 E3.35303
G1 X142.029 Y126.294 E3.36646
G1 X141.941 Y126.554 E3.37990
G1 X141.819 Y126.800 E3.39333
G1 X141.666 Y127.029 E3.40677
G1 X141.535 Y127.179 E3.41654
G1 X141.551 Y127.502 F15000.000
G1 E1.41654 F4800.00000
G92 E0
G1 X140.331 Y118.265 F15000.000
G1 E2.00000 F4800.00000
G1 X140.000 Y118.287 E2.01623 F780.000
G1 X139.669 Y118.265 E2.03245
G1 X139.343 Y118.201 E2.04868
G1 X139.029 Y118.094 E2.06492
G1 X138.731 Y117.947 E2.08114
G1 X138.455 Y117.763 E2.09737
G1 X138.206 Y117.544 E2.11360
G1 X137.987 Y117.295 E2.12982
G1 X137.803 Y117.019 E2.14605
G1 X137.656 Y116.721 E2.16227
G1 X137.549 Y116.407 E2.17851
G1 X137.485 Y116.081 E2.19474
G1 X137.463 Y115.750 E2.21096
G1 X137.485 Y115.419 E2.22719
G1 X137.549 Y115.093 E2.24342
G1 X137.656 Y114.779 E2.25966
G1 X137.803 Y114.481 E2.27588
G1 X137.987 Y114.205 E2.29211
G1 X138.206 Y113.956 E2.30833
G1 X138.455 Y113.737 E2.32456
G1 X138.731 Y113.553 E2.34079
G1 X139.029 Y113.406 E2.35701
G1 X139.343 Y113.299 E2.37325
G1 X139.669 Y113.235 E2.38948
G1 X140.000 Y113.213 E2.40570 F780.000
G1 X140.331 Y113.235 E2.42193
G1 X140.657 Y113.299 E2.43816
G1 X140.971 Y113.406 E2.45439
G1 X141.269 Y113.553 E2.47062
G1 X141.545 Y113.737 E2.48685
G1 X141.794 Y113.956 E2.50307
G1 X142.013 Y114.205 E2.51930
G1 X142.197 Y114.481 E2.53552
G1 X142.344 Y114.779 E2.55175
G1 X142.451 Y115.093 E2.56799
G1 X142.515 Y115.419 E2.58421
G1 X142.537 Y115.750 E2.60044
G1 X142.515 Y116.081 E2.61667
G1 X142.451 Y116.407 E2.63290
G1 X142.344 Y116.721 E2.64913
G1 X142.197 Y117.019 E2.66536
G1 X142.013 Y117.295 E2.68158
G1 X141.794 Y117.544 E2.69781
G1 X141.545 Y117.763 E2.71404
G1 X141.269 Y117.947 E2.73026
G1 X140.971 Y118.094 E2.74649
G1 X140.657 Y118.201 E2.76272
G1 X140.405 Y118.251 E2.77529
G1 X140.274 Y117.833 F15000.000
G1 X140.000 Y117.851 E2.78872 F780.000
G1 X139.726 Y117.833 E2.80216
G1 X139.456 Y117.779 E2.81559
G1 X139.196 Y117.691 E2.82903
G1 X138.950 Y117.569 E2.84247
G1 X138.721 Y117.416 E2.85590
G1 X138.515 Y117.235 E2.86934
G1 X138.334 Y117.029 E2.88277
G1 X138.181 Y116.800 E2.89621
G1 X138.059 Y116.554 E2.90964
G1 X137.971 Y116.294 E2.92308
G1 X137.917 Y116.024 E2.93652
G1 X137.899 Y115.750 E2.94995
G1 X137.917 Y115.476 E2.96339
G1 X137.971 Y115.206 E2.97682
G1 X138.059 Y114.946 E2.99026
G1 X138.181 Y114.700 E3.00370
G1 X138.334 Y114.471 E3.01713
G1 X138.515 Y114.265 E3.03057
G1 X138.721 Y114.084 E3.04400
G1 X138.950 Y113.931 E3.05743
G1 X139.196 Y113.809 E3.07087
G1 X139.456 Y113.721 E3.08431
G1 X139.726 Y113.667 E3.09774
G1 X140.000 Y113.649 E3.11118 F780.000
G1 X140.274 Y113.667 E3.12462
G1 X140.544 Y113.721 E3.13805
G1 X140.804 Y113.809 E3.15149
G1 X141.050 Y113.931 E3.16493
G1 X141.279 Y114.084 E3.17836
G1 X141.485 Y114.265 E3.19180
G1 X141.666 Y114.471 E3.20523
G1 X141.819 Y114.700 E3.21866
G1 X141.941 Y114.946 E3.23210
G1 X142.029 Y115.206 E3.24554
G1 X142.083 Y115.476 E3.25897
G1 X142.101 Y115.750 E3.27241
G1 X142.083 Y116.024 E3.28585
G1 X142.029 Y116.294 E3.29928
G1 X141.941 Y116.554 E3.31272
G1 X141.819 Y116.800 E3.32616
G1 X141.666 Y117.029 E3.33959
G1 X141.485 Y117.235 E3.35303
G1 X141.279 Y117.416 E3.36646
G1 X141.050 Y117.569 E3.37990
G1 X140.804 Y117.691 E3.39333
G1 X140.544 Y117.779 E3.40677
G1 X140.348 Y117.818 E3.41654
G1 X140.163 Y118.084 F15000.000
G1 E1.41654 F4800.00000
G92 E0
G1 X136.467 Y107.495 F15000.000
G1 E2.00000 F4800.00000
G1 X136.038 Y107.628 E2.02194 F780.000
G1 X135.592 Y107.675 E2.04388
G1 X135.145 Y107.634 E2.06582
G1 X134.715 Y107.506 E2.08777
G1 X134.318 Y107.297 E2.10971
G1 X133.969 Y107.015 E2.13165
G1 X133.682 Y106.670 E2.15359
G1 X133.468 Y106.276 E2.17553
G1 X133.335 Y105.847 E2.19748
G1 X133.288 Y105.401 E2.21942
G1 X133.329 Y104.954 E2.24136
G1 X133.457 Y104.524 E2.26330
G1 X133.666 Y104.127 E2.28524
G1 X133.948 Y103.778 E2.30718
G1 X134.293 Y103.491 E2.32913
G1 X134.687 Y103.277 E2.35107
G1 X135.115 Y103.144 E2.37298
G1 X135.553 Y103.097 E2.39449 F780.000
G1 X136.008 Y103.138 E2.41684
G1 X136.439 Y103.265 E2.43883
G1 X136.836 Y103.474 E2.46077
G1 X137.185 Y103.757 E2.48272
G1 X137.472 Y104.102 E2.50466
G1 X137.686 Y104.496 E2.52660
G1 X137.819 Y104.925 E2.54854
G1 X137.866 Y105.371 E2.57048
G1 X137.825 Y105.818 E2.59242
G1 X137.698 Y106.248 E2.61437
G1 X137.489 Y106.645 E2.63631
G1 X137.206 Y106.994 E2.65825
G1 X136.861 Y107.281 E2.68019
G1 X136.533 Y107.459 E2.69847
G1 X136.297 Y107.091 F15000.000
G1 X135.950 Y107.199 E2.71621 F780.000
G1 X135.589 Y107.237 E2.73396
G1 X135.228 Y107.204 E2.75170
G1 X134.880 Y107.101 E2.76945
G1 X134.559 Y106.932 E2.78719
G1 X134.277 Y106.703 E2.80494
G1 X134.045 Y106.424 E2.82269
G1 X133.872 Y106.105 E2.84043
G1 X133.764 Y105.759 E2.85818
G1 X133.726 Y105.398 E2.87592
G1 X133.759 Y105.037 E2.89367
G1 X133.862 Y104.689 E2.91141
G1 X134.031 Y104.367 E2.92916
G1 X134.260 Y104.085 E2.94691
G1 X134.539 Y103.853 E2.96465
G1 X134.858 Y103.680 E2.98240
G1 X135.204 Y103.573 E3.00013
G1 X135.557 Y103.535 E3.01748 F780.000
G1 X135.926 Y103.568 E3.03561
G1 X136.274 Y103.671 E3.05338
G1 X136.596 Y103.840 E3.07112
G1 X136.878 Y104.068 E3.08887
G1 X137.110 Y104.347 E3.10662
G1 X137.283 Y104.666 E3.12436
G1 X137.390 Y105.013 E3.14211
G1 X137.428 Y105.374 E3.15985
G1 X137.395 Y105.735 E3.17760
G1 X137.292 Y106.083 E3.19534
G1 X137.123 Y106.404 E3.21309
G1 X136.895 Y106.686 E3.23084
G1 X136.616 Y106.918 E3.24858
G1 X136.363 Y107.056 E3.26266
G1 X136.240 Y107.450 F15000.000
G1 E1.26266 F4800.00000
G92 E0
G1 X125.012 Y104.073 F15000.000
G1 E2.00000 F4800.00000
G1 X124.875 Y104.211 E2.00951 F960.000
G1 X125.074 Y104.577 E2.02992
G1 X125.207 Y105.006 E2.05187
G1 X125.254 Y105.452 E2.07381
G1 X125.213 Y105.899 E2.09575
G1 X125.086 Y106.329 E2.11769
G1 X124.877 Y106.726 E2.13963
G1 X124.595 Y107.075 E2.16157
G1 X124.250 Y107.362 E2.18352
G1 X123.855 Y107.576 E2.20546
G1 X123.427 Y107.709 E2.22740
G1 X122.980 Y107.756 E2.24934
G1 X122.534 Y107.715 E2.27128
G1 X122.103 Y107.588 E2.29322
G1 X121.706 Y107.379 E2.31517
G1 X121.358 Y107.096 E2.33711
G1 X121.071 Y106.751 E2.35905
G1 X120.857 Y106.357 E2.38099
G1 X120.723 Y105.928 E2.40293
G1 X120.677 Y105.482 E2.42487
G1 X120.718 Y105.035 E2.44682
G1 X120.845 Y104.605 E2.46876
G1 X121.054 Y104.208 E2.49070
G1 X121.336 Y103.859 E2.51264
G1 X121.681 Y103.572 E2.53458
G1 X122.076 Y103.358 E2.55652
G1 X122.504 Y103.225 E2.57843
G1 X122.941 Y103.179 E2.59994
G1 X123.396 Y103.219 E2.62230
G1 X123.790 Y103.336 E2.64238
G1 X123.897 Y103.175 E2.65183
G1 X123.270 Y102.411 E2.70017
G1 X122.744 Y101.427 E2.75470
G1 X122.420 Y100.360 E2.80924
G1 X122.311 Y99.250 E2.86377
G1 X122.420 Y98.140 E2.91830
G1 X122.744 Y97.073 E2.97284
G1 X123.270 Y96.089 E3.02737
G1 X123.977 Y95.227 E3.08191
G1 X124.839 Y94.520 E3.13644
G1 X125.823 Y93.994 E3.19097
G1 X126.890 Y93.670 E3.24551
G1 X127.948 Y93.566 E3.29749
G1 X129.107 Y93.669 E3.35438
G1 X130.177 Y93.994 E3.40907
G1 X130.988 Y94.427 E3.45402
G1 X131.125 Y94.289 E3.46353
G1 X130.926 Y93.923 E3.48394
G1 X130.793 Y93.494 E3.50588
G1 X130.746 Y93.048 E3.52782
G1 X130.787 Y92.601 E3.54976
G1 X130.914 Y92.171 E3.57171
G1 X131.123 Y91.774 E3.59365
G1 X131.405 Y91.425 E3.61559
G1 X131.750 Y91.138 E3.63753
G1 X132.145 Y90.924 E3.65947
G1 X132.573 Y90.791 E3.68138
G1 X133.010 Y90.744 E3.70289
G1 X133.465 Y90.785 E3.72525
G1 X133.897 Y90.912 E3.74724
G1 X134.294 Y91.121 E3.76918
G1 X134.642 Y91.404 E3.79112
G1 X134.929 Y91.749 E3.81306
G1 X135.143 Y92.143 E3.83501
G1 X135.277 Y92.572 E3.85695
G1 X135.323 Y93.018 E3.87889
G1 X135.282 Y93.465 E3.90083
G1 X135.155 Y93.895 E3.92277
G1 X134.946 Y94.292 E3.94471
G1 X134.664 Y94.641 E3.96665
G1 X134.319 Y94.928 E3.98860
G1 X133.924 Y95.142 E4.01054
G1 X133.496 Y95.275 E4.03248
G1 X133.050 Y95.322 E4.05442
G1 X132.603 Y95.281 E4.07636
G1 X132.210 Y95.164 E4.09640
G1 X132.103 Y95.325 E4.10585
G1 X132.730 Y96.089 E4.15418
G1 X133.256 Y97.073 E4.20872
G1 X133.580 Y98.140 E4.26325
G1 X133.689 Y99.250 E4.31779
G1 X133.580 Y100.360 E4.37232
G1 X133.256 Y101.427 E4.42685
G1 X132.730 Y102.411 E4.48139
G1 X132.023 Y103.273 E4.53592
G1 X131.161 Y103.980 E4.59046
G1 X130.177 Y104.506 E4.64499
G1 X129.110 Y104.830 E4.69952
G1 X128.000 Y104.939 E4.75406
G1 X126.890 Y104.830 E4.80859
G1 X125.823 Y104.506 E4.86313
G1 X125.078 Y104.108 E4.90441
G1 X124.498 Y104.429 F15000.000
G1 X124.671 Y104.748 E4.92215 F780.000
G1 X124.779 Y105.094 E4.93990
G1 X124.817 Y105.455 E4.95765
G1 X124.783 Y105.816 E4.97539
G1 X124.680 Y106.164 E4.99314
G1 X124.511 Y106.486 E5.01088
G1 X124.283 Y106.768 E5.02863
G1 X124.004 Y107.000 E5.04637
G1 X123.685 Y107.173 E5.06412
G1 X123.338 Y107.280 E5.08186
G1 X122.978 Y107.318 E5.09961
G1 X122.616 Y107.285 E5.11736
G1 X122.268 Y107.182 E5.13510
G1 X121.947 Y107.013 E5.15285
G1 X121.665 Y106.785 E5.17059
G1 X121.433 Y106.506 E5.18834
G1 X121.260 Y106.187 E5.20608
G1 X121.152 Y105.840 E5.22383
G1 X121.114 Y105.479 E5.24158
G1 X121.147 Y105.118 E5.25932
G1 X121.251 Y104.770 E5.27707
G1 X121.420 Y104.449 E5.29481
G1 X121.648 Y104.167 E5.31256
G1 X121.927 Y103.935 E5.33030
G1 X122.246 Y103.762 E5.34805
G1 X122.592 Y103.654 E5.36578
G1 X122.945 Y103.616 E5.38313 F780.000
G1 X123.314 Y103.649 E5.40127
G1 X123.663 Y103.752 E5.41903
G1 X123.984 Y103.921 E5.43678
G1 X124.266 Y104.150 E5.45452
G1 X124.450 Y104.371 E5.46860
G1 X124.861 Y104.414 F15000.000
G1 X125.083 Y103.616 F15000.000
G1 X124.287 Y102.963 E5.51894 F780.000
G1 X123.634 Y102.167 E5.56928
G1 X123.149 Y101.260 E5.61961
G1 X122.850 Y100.274 E5.66995
G1 X122.749 Y99.250 E5.72029
G1 X122.850 Y98.226 E5.77063
G1 X123.149 Y97.240 E5.82097
G1 X123.634 Y96.333 E5.87130
G1 X124.287 Y95.537 E5.92164
G1 X125.083 Y94.884 E5.97198
G1 X125.990 Y94.399 E6.02232
G1 X126.976 Y94.100 E6.07266
G1 X127.950 Y94.004 E6.12054 F780.000
G1 X129.023 Y94.099 E6.17323
G1 X130.010 Y94.399 E6.22363
G1 X130.917 Y94.884 E6.27397
G1 X131.713 Y95.537 E6.32430
G1 X132.366 Y96.333 E6.37464
G1 X132.851 Y97.240 E6.42498
G1 X133.150 Y98.226 E6.47532
G1 X133.251 Y99.250 E6.52566
G1 X133.150 Y100.274 E6.57599
G1 X132.851 Y101.260 E6.62633
G1 X132.366 Y102.167 E6.67667
G1 X131.713 Y102.963 E6.72701
G1 X130.917 Y103.616 E6.77735
G1 X130.010 Y104.101 E6.82768
G1 X129.024 Y104.400 E6.87802
G1 X128.000 Y104.501 E6.92836
G1 X126.976 Y104.400 E6.97870
G1 X125.990 Y104.101 E7.02904
G1 X125.149 Y103.652 E7.07571
G1 X124.627 Y103.823 F15000.000
G1 E5.07571 F4800.00000
G92 E0
G1 X132.016 Y94.579 F15000.000
G1 E2.00000 F4800.00000
