; generated by Slic3r 1.2.9 on 2015-09-08 at 13:16:19

; external perimeters extrusion width = 0.50mm
; perimeters extrusion width = 0.50mm
; infill extrusion width = 0.50mm
; solid infill extrusion width = 0.50mm
; top infill extrusion width = 0.50mm
; support material extrusion width = 0.25mm

M107
M190 S105 ; set bed temperature
M104 S240 ; set temperature
G28 X0 Y0
G28 Z0
G1 Z0.3 F200
G1 X15 Y20 F12000
M109 S240 ; wait for temperature to be reached
G21 ; set units to millimeters
G90 ; use absolute coordinates
M82 ; use absolute distances for extrusion
G92 E0
G1 Z0.300 F15000.000
G1 E-2.00000 F4800.00000
G92 E0
G1 X70.849 Y91.389 F15000.000
G1 E2.00000 F4800.00000
G1 X73.110 Y90.626 E2.11671 F600.000
G1 X83.923 Y89.117 E2.65056
G1 X84.813 Y89.055 E2.69418
G1 X133.533 Y89.055 E5.07656
G1 X134.451 Y89.121 E5.12159 F600.000
G1 X144.918 Y90.630 E5.63874
G1 X147.064 Y91.341 E5.74926
G1 X148.832 Y92.749 E5.85978
G1 X150.004 Y94.682 E5.97030
G1 X150.436 Y97.000 E6.08561
G1 X150.436 Y121.000 E7.25920
G1 X150.039 Y123.225 E7.36973
G1 X148.897 Y125.176 E7.48025
G1 X147.151 Y126.611 E7.59077
G1 X144.927 Y127.368 E7.70565
G1 X134.562 Y128.878 E8.21787
G1 X133.634 Y128.945 E8.26334
G1 X84.914 Y128.945 E10.64572
G1 X83.654 Y128.892 E10.70743
G1 X83.027 Y128.831 E10.73819
G1 X73.065 Y127.367 E11.23060
G1 X70.921 Y126.651 E11.34112
G1 X69.157 Y125.238 E11.45164
G1 X67.990 Y123.302 E11.56217
G1 X67.564 Y121.000 E11.67666
G1 X67.564 Y97.000 E12.85025
G1 X67.961 Y94.775 E12.96077
G1 X69.103 Y92.824 E13.07129
G1 X70.791 Y91.436 E13.17815
G1 E11.17815 F4800.00000
G92 E0
G1 X143.314 Y120.314 F15000.000
G1 E2.00000 F4800.00000
G1 X138.449 Y120.314 E2.23793 F960.000
G1 X138.449 Y117.008 E2.39959
G1 X138.731 Y117.197 E2.41622
G1 X139.029 Y117.344 E2.43245
G1 X139.343 Y117.451 E2.44868
G1 X139.669 Y117.515 E2.46490
G1 X140.000 Y117.537 E2.48113
G1 X140.331 Y117.515 E2.49736
G1 X140.657 Y117.451 E2.51359
G1 X140.971 Y117.344 E2.52982
G1 X141.269 Y117.197 E2.54605
G1 X141.545 Y117.013 E2.56227
G1 X141.794 Y116.794 E2.57850
G1 X142.013 Y116.544 E2.59473
G1 X142.197 Y116.269 E2.61095
G1 X142.344 Y115.971 E2.62718
G1 X142.451 Y115.657 E2.64341
G1 X142.515 Y115.331 E2.65964
G1 X142.537 Y115.000 E2.67587
G1 X142.515 Y114.669 E2.69210
G1 X142.451 Y114.343 E2.70833
G1 X142.344 Y114.029 E2.72456
G1 X142.197 Y113.731 E2.74079
G1 X142.013 Y113.456 E2.75701
G1 X141.794 Y113.206 E2.77324
G1 X141.545 Y112.987 E2.78947
G1 X141.269 Y112.803 E2.80569
G1 X140.971 Y112.656 E2.82192
G1 X140.657 Y112.549 E2.83815
G1 X140.331 Y112.485 E2.85438
G1 X140.000 Y112.463 E2.87061
G1 X139.669 Y112.485 E2.88684
G1 X139.343 Y112.549 E2.90306
G1 X139.029 Y112.656 E2.91929
G1 X138.731 Y112.803 E2.93552
G1 X138.449 Y112.992 E2.95215
G1 X138.449 Y105.008 E3.34253
G1 X138.731 Y105.197 E3.35916
G1 X139.029 Y105.344 E3.37539
G1 X139.343 Y105.451 E3.39162
G1 X139.669 Y105.515 E3.40784
G1 X140.000 Y105.537 E3.42407
G1 X140.331 Y105.515 E3.44030
G1 X140.657 Y105.451 E3.45653
G1 X140.971 Y105.344 E3.47276
G1 X141.269 Y105.197 E3.48898
G1 X141.545 Y105.013 E3.50521
G1 X141.794 Y104.794 E3.52144
G1 X142.013 Y104.544 E3.53767
G1 X142.197 Y104.269 E3.55389
G1 X142.344 Y103.971 E3.57012
G1 X142.451 Y103.657 E3.58635
G1 X142.515 Y103.331 E3.60258
G1 X142.537 Y103.000 E3.61881
G1 X142.515 Y102.669 E3.63503
G1 X142.451 Y102.343 E3.65126
G1 X142.344 Y102.029 E3.66750
G1 X142.197 Y101.731 E3.68372
G1 X142.013 Y101.456 E3.69995
G1 X141.794 Y101.206 E3.71618
G1 X141.545 Y100.987 E3.73240
G1 X141.269 Y100.803 E3.74863
G1 X140.971 Y100.656 E3.76486
G1 X140.657 Y100.549 E3.78109
G1 X140.331 Y100.485 E3.79732
G1 X140.000 Y100.463 E3.81355
G1 X139.669 Y100.485 E3.82978
G1 X139.343 Y100.549 E3.84600
G1 X139.029 Y100.656 E3.86223
G1 X138.731 Y100.803 E3.87846
G1 X138.449 Y100.992 E3.89509
G1 X138.449 Y97.686 E4.05675
G1 X143.314 Y97.686 E4.29468
G1 X143.314 Y120.239 E5.39755
G1 X143.750 Y120.750 F15000.000
G1 X138.013 Y120.750 E5.67808 F780.000
G1 X138.013 Y116.133 E5.90384
G1 X138.199 Y116.077 E5.91332
G1 X138.334 Y116.279 E5.92520
G1 X138.515 Y116.485 E5.93863
G1 X138.721 Y116.666 E5.95207
G1 X138.950 Y116.819 E5.96550
G1 X139.196 Y116.941 E5.97894
G1 X139.456 Y117.029 E5.99238
G1 X139.726 Y117.083 E6.00581
G1 X140.000 Y117.101 E6.01925
G1 X140.274 Y117.083 E6.03268
G1 X140.544 Y117.029 E6.04612
G1 X140.804 Y116.941 E6.05956
G1 X141.050 Y116.819 E6.07299
G1 X141.279 Y116.666 E6.08643
G1 X141.485 Y116.485 E6.09986
G1 X141.666 Y116.279 E6.11330
G1 X141.819 Y116.050 E6.12673
G1 X141.941 Y115.804 E6.14017
G1 X142.029 Y115.544 E6.15361
G1 X142.083 Y115.274 E6.16704
G1 X142.101 Y115.000 E6.18048
G1 X142.083 Y114.726 E6.19391
G1 X142.029 Y114.456 E6.20735
G1 X141.941 Y114.196 E6.22079
G1 X141.819 Y113.950 E6.23422
G1 X141.666 Y113.721 E6.24766
G1 X141.485 Y113.515 E6.26109
G1 X141.279 Y113.334 E6.27453
G1 X141.050 Y113.181 E6.28796
G1 X140.804 Y113.059 E6.30140
G1 X140.544 Y112.971 E6.31484
G1 X140.274 Y112.917 E6.32827
G1 X140.000 Y112.899 E6.34171
G1 X139.726 Y112.917 E6.35514
G1 X139.456 Y112.971 E6.36858
G1 X139.196 Y113.059 E6.38202
G1 X138.950 Y113.181 E6.39545
G1 X138.721 Y113.334 E6.40889
G1 X138.515 Y113.515 E6.42232
G1 X138.334 Y113.721 E6.43576
G1 X138.199 Y113.923 E6.44763
G1 X138.013 Y113.867 E6.45711
G1 X138.013 Y104.133 E6.93309
G1 X138.199 Y104.077 E6.94257
G1 X138.334 Y104.279 E6.95445
G1 X138.515 Y104.485 E6.96788
G1 X138.721 Y104.666 E6.98132
G1 X138.950 Y104.819 E6.99475
G1 X139.196 Y104.941 E7.00819
G1 X139.456 Y105.029 E7.02163
G1 X139.726 Y105.083 E7.03506
G1 X140.000 Y105.101 E7.04850
G1 X140.274 Y105.083 E7.06193
G1 X140.544 Y105.029 E7.07537
G1 X140.804 Y104.941 E7.08880
G1 X141.050 Y104.819 E7.10224
G1 X141.279 Y104.666 E7.11568
G1 X141.485 Y104.485 E7.12911
G1 X141.666 Y104.279 E7.14255
G1 X141.819 Y104.050 E7.15598
G1 X141.941 Y103.804 E7.16942
G1 X142.029 Y103.544 E7.18285
G1 X142.083 Y103.274 E7.19629
G1 X142.101 Y103.000 E7.20973
G1 X142.083 Y102.726 E7.22316
G1 X142.029 Y102.456 E7.23660
G1 X141.941 Y102.196 E7.25003
G1 X141.819 Y101.950 E7.26347
G1 X141.666 Y101.721 E7.27690
G1 X141.485 Y101.515 E7.29034
G1 X141.279 Y101.334 E7.30378
G1 X141.050 Y101.181 E7.31721
G1 X140.804 Y101.059 E7.33065
G1 X140.544 Y100.971 E7.34408
G1 X140.274 Y100.917 E7.35752
G1 X140.000 Y100.899 E7.37096
G1 X139.726 Y100.917 E7.38439
G1 X139.456 Y100.971 E7.39783
G1 X139.196 Y101.059 E7.41126
G1 X138.950 Y101.181 E7.42470
G1 X138.721 Y101.334 E7.43813
G1 X138.515 Y101.515 E7.45157
G1 X138.334 Y101.721 E7.46501
G1 X138.199 Y101.923 E7.47688
G1 X138.013 Y101.867 E7.48636
G1 X138.013 Y97.250 E7.71212
G1 X143.750 Y97.250 E7.99265
G1 X143.750 Y120.675 E9.13813
G1 X143.317 Y120.500 F15000.000
G1 E7.13813 F4800.00000
G92 E0
G1 X138.045 Y115.862 F15000.000
G1 E2.00000 F4800.00000
G1 X137.990 Y115.523 E2.01679 F780.000
G1 X137.957 Y115.013 E2.04181
G1 X137.990 Y114.477 E2.06806
G1 X138.045 Y114.138 E2.08485
G1 E0.08485 F4800.00000
G92 E0
G1 X138.045 Y103.862 F15000.000
G1 E2.00000 F4800.00000
G1 X137.990 Y103.523 E2.01679 F780.000
G1 X137.957 Y103.013 E2.04181
G1 X137.990 Y102.477 E2.06806
G1 X138.045 Y102.138 E2.08485
G1 E0.08485 F4800.00000
G92 E0
G1 X139.116 Y105.764 F15000.000
G1 E2.00000 F4800.00000
G1 X139.260 Y106.287 E2.02649 F1200.000
G1 X139.437 Y107.140 E2.06909
G1 X139.549 Y108.003 E2.11169
G1 X139.597 Y108.873 E2.15428
G1 X139.579 Y109.744 E2.19688
G1 X139.496 Y110.611 E2.23947
G1 X139.348 Y111.470 E2.28207
G1 X139.161 Y112.220 E2.31988
G1 X139.642 Y112.115 F15000.000
G1 X139.828 Y111.289 E2.36128 F1200.000
G1 X139.957 Y110.428 E2.40388
G1 X139.999 Y109.994 E2.42518
G1 X140.034 Y109.124 E2.46778
G1 X140.006 Y108.253 E2.51037
G1 X139.916 Y107.387 E2.55297
G1 X139.763 Y106.529 E2.59557
G1 X139.601 Y105.879 E2.62831
G1 X140.060 Y105.904 F15000.000
G1 X140.233 Y106.653 E2.66587 F1200.000
G1 X140.372 Y107.513 E2.70847
G1 X140.419 Y107.946 E2.72977
G1 X140.467 Y108.815 E2.77237
G1 X140.455 Y109.686 E2.81496
G1 X140.381 Y110.554 E2.85756
G1 X140.247 Y111.415 E2.90016
G1 X140.095 Y112.098 E2.93437
G1 X140.532 Y112.147 F15000.000
G1 X140.690 Y111.420 E2.97076 F1200.000
G1 X140.819 Y110.558 E3.01336
G1 X140.890 Y109.690 E3.05596
G1 X140.903 Y108.819 E3.09855
G1 X140.857 Y107.949 E3.14115
G1 X140.812 Y107.516 E3.16245
G1 X140.678 Y106.655 E3.20505
G1 X140.499 Y105.860 E3.24493
G1 X140.921 Y105.752 F15000.000
G1 X141.098 Y106.537 E3.28427 F1200.000
G1 X141.236 Y107.397 E3.32686
G1 X141.317 Y108.264 E3.36946
G1 X141.341 Y109.135 E3.41206
G1 X141.308 Y110.005 E3.45466
G1 X141.219 Y110.872 E3.49725
G1 X141.073 Y111.731 E3.53985
G1 X140.953 Y112.259 E3.56633
G1 X141.358 Y112.434 F15000.000
G1 X141.562 Y111.493 E3.61343 F1200.000
G1 X141.688 Y110.631 E3.65602
G1 X141.759 Y109.763 E3.69862
G1 X141.775 Y108.892 E3.74122
G1 X141.737 Y108.022 E3.78382
G1 X141.643 Y107.155 E3.82642
G1 X141.495 Y106.297 E3.86901
G1 X141.326 Y105.582 E3.90496
G1 X141.714 Y105.345 F15000.000
G1 X141.952 Y106.364 E3.95611 F1200.000
G1 X142.092 Y107.223 E3.99871
G1 X142.178 Y108.090 E4.04131
G1 X142.212 Y108.961 E4.08390
G1 X142.192 Y109.832 E4.12650
G1 X142.118 Y110.700 E4.16910
G1 X141.992 Y111.562 E4.21170
G1 X141.746 Y112.676 E4.26752
G1 X142.108 Y113.003 F15000.000
G1 X142.364 Y111.937 E4.32112 F1200.000
G1 X142.510 Y111.078 E4.36372
G1 X142.563 Y110.646 E4.38502
G1 X142.631 Y109.777 E4.42762
G1 X142.647 Y108.906 E4.47022
G1 X142.636 Y108.471 E4.49152
G1 X142.574 Y107.602 E4.53412
G1 X142.461 Y106.738 E4.57672
G1 X142.297 Y105.883 E4.61932
G1 X142.079 Y105.030 E4.66234
G1 X142.410 Y104.617 F15000.000
G1 X142.704 Y105.707 E4.71757 F1200.000
G1 X142.874 Y106.562 E4.76017
G1 X142.944 Y107.027 E4.78319
G1 E2.78319 F4800.00000
G92 E0
G1 X142.944 Y104.889 F15000.000
G1 E2.00000 F4800.00000
G1 X142.819 Y104.466 E2.02158 F1200.000
G1 E0.02158 F4800.00000
G92 E0
G1 X138.819 Y106.322 F15000.000
G1 E2.00000 F4800.00000
G1 X138.924 Y106.773 E2.02263 F1200.000
G1 X139.070 Y107.632 E2.06522
G1 X139.118 Y108.065 E2.08653
G1 X139.162 Y108.935 E2.12912
G1 X139.159 Y109.370 E2.15042
G1 X139.101 Y110.240 E2.19302
G1 X138.976 Y111.102 E2.23561
G1 X138.819 Y111.812 E2.27120
G1 E0.27120 F4800.00000
G92 E0
G1 X142.440 Y113.428 F15000.000
G1 E2.00000 F4800.00000
G1 X142.757 Y112.191 E2.06247 F1200.000
G1 X142.944 Y111.104 E2.11641
G1 E0.11641 F4800.00000
G92 E0
G1 X142.944 Y113.252 F15000.000
G1 E2.00000 F4800.00000
G1 X142.865 Y113.526 E2.01398 F1200.000
G1 X142.823 Y113.909 F15000.000
G1 X142.912 Y114.605 E2.08766 F600.000
G1 X142.926 Y114.989 E2.12805
G1 X142.912 Y115.395 E2.17079
G1 X142.823 Y116.091 E2.24447
G1 X142.641 Y116.437 F15000.000
G1 X142.065 Y117.488 E2.30308 F1200.000
G1 X141.599 Y118.223 E2.34568
G1 X141.094 Y118.933 E2.38827
G1 X140.269 Y119.944 E2.45208
G1 X140.843 Y119.944 F15000.000
G1 X141.491 Y119.130 E2.50296 F1200.000
G1 X141.993 Y118.418 E2.54556
G1 X142.457 Y117.681 E2.58816
G1 X142.944 Y116.802 E2.63732
G1 X142.944 Y117.710 F15000.000
G1 X142.687 Y118.142 E2.66186 F1200.000
G1 X142.212 Y118.871 E2.70446
G1 X141.409 Y119.944 E2.76996
G1 X141.965 Y119.944 F15000.000
G1 X142.499 Y119.222 E2.81387 F1200.000
G1 X142.944 Y118.551 E2.85322
G1 X142.944 Y119.342 F15000.000
G1 X142.512 Y119.944 E2.88948 F1200.000
G1 E0.88948 F4800.00000
G92 E0
G1 X141.591 Y117.427 F15000.000
G1 E2.00000 F4800.00000
G1 X141.273 Y117.926 E2.02894 F1200.000
G1 X140.771 Y118.638 E2.07153
G1 X140.230 Y119.321 E2.11413
G1 X139.680 Y119.944 E2.15479
G1 X139.078 Y119.944 F15000.000
G1 X139.416 Y119.589 E2.17877 F1200.000
G1 X139.988 Y118.931 E2.22137
G1 X140.521 Y118.243 E2.26397
G1 X140.847 Y117.777 E2.29178
G1 X140.235 Y117.893 F15000.000
G1 X139.545 Y118.782 E2.34680 F1200.000
G1 X138.819 Y119.584 E2.39973
G1 X138.819 Y118.949 F15000.000
G1 X139.182 Y118.537 E2.42656 F1200.000
G1 X139.699 Y117.888 E2.46713
G1 X139.218 Y117.799 F15000.000
G1 X138.819 Y118.290 E2.49804 F1200.000
G1 E0.49804 F4800.00000
G92 E0
G1 X142.823 Y104.091 F15000.000
G1 E2.00000 F4800.00000
G1 X142.912 Y103.395 E2.07368 F600.000
G1 X142.926 Y103.011 E2.11407
G1 X142.912 Y102.605 E2.15681
G1 X142.823 Y101.909 E2.23049
G1 X142.574 Y101.574 F15000.000
G1 X141.968 Y100.498 E2.29090 F1200.000
G1 X141.492 Y99.768 E2.33350
G1 X140.708 Y98.723 E2.39739
G1 X140.132 Y98.056 E2.44048
G1 X140.714 Y98.056 F15000.000
G1 X141.354 Y98.838 E2.48993 F1200.000
G1 X141.866 Y99.543 E2.53253
G1 X142.341 Y100.273 E2.57512
G1 X142.944 Y101.342 E2.63512
G1 X142.944 Y100.436 F15000.000
G1 X142.650 Y99.944 E2.66316 F1200.000
G1 X142.170 Y99.216 E2.70576
G1 X141.654 Y98.514 E2.74836
G1 X141.285 Y98.056 E2.77715
G1 X141.848 Y98.056 F15000.000
G1 X142.402 Y98.789 E2.82212 F1200.000
G1 X142.944 Y99.595 E2.86961
G1 X142.944 Y98.806 F15000.000
G1 X142.399 Y98.056 E2.91494 F1200.000
G1 E0.91494 F4800.00000
G92 E0
G1 X141.437 Y100.473 F15000.000
G1 E2.00000 F4800.00000
G1 X141.048 Y99.892 E2.03418 F1200.000
G1 X140.527 Y99.194 E2.07678
G1 X139.968 Y98.525 E2.11938
G1 X139.535 Y98.056 E2.15062
G1 X138.924 Y98.056 F15000.000
G1 X139.423 Y98.571 E2.18572 F1200.000
G1 X139.995 Y99.228 E2.22832
G1 X140.719 Y100.184 E2.28696
G1 X140.122 Y100.100 F15000.000
G1 X139.378 Y99.174 E2.34502 F1200.000
G1 X138.819 Y98.568 E2.38536
G1 X138.819 Y99.204 F15000.000
G1 X139.245 Y99.689 E2.41695 F1200.000
G1 X139.592 Y100.122 E2.44408
G1 X139.125 Y100.233 F15000.000
G1 X138.819 Y99.861 E2.46760 F1200.000
G1 E0.46760 F4800.00000
G92 E0
G1 X117.551 Y120.314 F15000.000
G1 E2.00000 F4800.00000
G1 X112.686 Y120.314 E2.23793 F960.000
G1 X112.686 Y97.686 E3.34446
G1 X117.551 Y97.686 E3.58239
G1 X117.551 Y100.992 E3.74406
G1 X117.269 Y100.803 E3.76068
G1 X116.971 Y100.656 E3.77691
G1 X116.657 Y100.549 E3.79314
G1 X116.331 Y100.485 E3.80936
G1 X116.000 Y100.463 E3.82560
G1 X115.669 Y100.485 E3.84182
G1 X115.343 Y100.549 E3.85805
G1 X115.029 Y100.656 E3.87428
G1 X114.731 Y100.803 E3.89051
G1 X114.455 Y100.987 E3.90674
G1 X114.206 Y101.206 E3.92296
G1 X113.987 Y101.456 E3.93919
G1 X113.803 Y101.731 E3.95542
G1 X113.656 Y102.029 E3.97164
G1 X113.549 Y102.343 E3.98788
G1 X113.485 Y102.669 E4.00411
G1 X113.463 Y103.000 E4.02033
G1 X113.485 Y103.331 E4.03656
G1 X113.549 Y103.657 E4.05279
G1 X113.656 Y103.971 E4.06902
G1 X113.803 Y104.269 E4.08525
G1 X113.987 Y104.544 E4.10147
G1 X114.206 Y104.794 E4.11770
G1 X114.455 Y105.013 E4.13393
G1 X114.731 Y105.197 E4.15016
G1 X115.029 Y105.344 E4.16639
G1 X115.343 Y105.451 E4.18262
G1 X115.669 Y105.515 E4.19884
G1 X116.000 Y105.537 E4.21507
G1 X116.331 Y105.515 E4.23130
G1 X116.657 Y105.451 E4.24753
G1 X116.971 Y105.344 E4.26376
G1 X117.269 Y105.197 E4.27999
G1 X117.551 Y105.008 E4.29661
G1 X117.551 Y112.992 E4.68700
G1 X117.269 Y112.803 E4.70362
G1 X116.971 Y112.656 E4.71985
G1 X116.657 Y112.549 E4.73608
G1 X116.331 Y112.485 E4.75230
G1 X116.000 Y112.463 E4.76853
G1 X115.669 Y112.485 E4.78476
G1 X115.343 Y112.549 E4.80099
G1 X115.029 Y112.656 E4.81722
G1 X114.731 Y112.803 E4.83345
G1 X114.455 Y112.987 E4.84968
G1 X114.206 Y113.206 E4.86590
G1 X113.987 Y113.456 E4.88213
G1 X113.803 Y113.731 E4.89836
G1 X113.656 Y114.029 E4.91458
G1 X113.549 Y114.343 E4.93082
G1 X113.485 Y114.669 E4.94705
G1 X113.463 Y115.000 E4.96327
G1 X113.485 Y115.331 E4.97950
G1 X113.549 Y115.657 E4.99573
G1 X113.656 Y115.971 E5.01196
G1 X113.803 Y116.269 E5.02819
G1 X113.987 Y116.544 E5.04441
G1 X114.206 Y116.794 E5.06064
G1 X114.455 Y117.013 E5.07687
G1 X114.731 Y117.197 E5.09310
G1 X115.029 Y117.344 E5.10932
G1 X115.343 Y117.451 E5.12556
G1 X115.669 Y117.515 E5.14178
G1 X116.000 Y117.537 E5.15801
G1 X116.331 Y117.515 E5.17424
G1 X116.657 Y117.451 E5.19046
G1 X116.971 Y117.344 E5.20670
G1 X117.269 Y117.197 E5.22292
G1 X117.551 Y117.008 E5.23955
G1 X117.551 Y120.239 E5.39755
G1 X117.987 Y120.750 F15000.000
G1 X112.250 Y120.750 E5.67808 F780.000
G1 X112.250 Y97.250 E6.82722
G1 X117.987 Y97.250 E7.10775
G1 X117.987 Y101.867 E7.33351
G1 X117.801 Y101.923 E7.34299
G1 X117.666 Y101.721 E7.35487
G1 X117.485 Y101.515 E7.36830
G1 X117.279 Y101.334 E7.38174
G1 X117.050 Y101.181 E7.39517
G1 X116.804 Y101.059 E7.40861
G1 X116.544 Y100.971 E7.42205
G1 X116.274 Y100.917 E7.43548
G1 X116.000 Y100.899 E7.44892
