; generated by Slic3r 1.2.9 on 2015-09-10 at 12:13:53

; external perimeters extrusion width = 0.50mm
; perimeters extrusion width = 0.50mm
; infill extrusion width = 0.50mm
; solid infill extrusion width = 0.50mm
; top infill extrusion width = 0.50mm
; support material extrusion width = 0.25mm

M107
M190 S105 ; set bed temperature
M104 S240 ; set temperature
G28 X0 Y0
G28 Z0
G1 Z0.3 F200
G1 X15 Y20 F12000
M109 S240 ; wait for temperature to be reached
G21 ; set units to millimeters
G90 ; use absolute coordinates
M82 ; use absolute distances for extrusion
G92 E0
G1 Z0.300 F15000.000
G1 E-2.00000 F4800.00000
G92 E0
G1 X70.849 Y91.389 F15000.000
G1 E2.00000 F4800.00000
G1 X73.110 Y90.626 E2.11671 F600.000
G1 X83.923 Y89.117 E2.65056
G1 X84.813 Y89.055 E2.69418
G1 X133.533 Y89.055 E5.07656
G1 X134.451 Y89.121 E5.12159 F600.000
G1 X144.918 Y90.630 E5.63874
G1 X147.064 Y91.341 E5.74926
G1 X148.832 Y92.749 E5.85978
G1 X150.004 Y94.682 E5.97030
G1 X150.436 Y97.000 E6.08561
G1 X150.436 Y121.000 E7.25920
G1 X150.039 Y123.225 E7.36973
G1 X148.897 Y125.176 E7.48025
G1 X147.151 Y126.611 E7.59077
G1 X144.927 Y127.368 E7.70565
G1 X134.562 Y128.878 E8.21787
G1 X133.634 Y128.945 E8.26334
G1 X84.914 Y128.945 E10.64572
G1 X83.654 Y128.892 E10.70743
G1 X83.027 Y128.831 E10.73819
G1 X73.065 Y127.367 E11.23060
G1 X70.921 Y126.651 E11.34112
G1 X69.157 Y125.238 E11.45164
G1 X67.990 Y123.302 E11.56217
G1 X67.564 Y121.000 E11.67666
G1 X67.564 Y97.000 E12.85025
G1 X67.961 Y94.775 E12.96077
G1 X69.103 Y92.824 E13.07129
G1 X70.791 Y91.436 E13.17815
G1 E11.17815 F4800.00000
G92 E0
G1 X119.606 Y121.787 F15000.000
G1 E2.00000 F4800.00000
G1 X118.868 Y122.525 E2.05100 F600.000
G1 X111.368 Y122.525 E2.41774
G1 X110.475 Y121.632 E2.47950
G1 X110.475 Y96.368 E3.71486
G1 X111.368 Y95.475 E3.77662
G1 X118.868 Y95.475 E4.14336
G1 X119.909 Y96.516 E4.21534
G1 X120.349 Y96.445 E4.23714
G1 X121.353 Y94.442 E4.34668
G1 X121.639 Y94.129 E4.36743
G1 X122.121 Y93.832 E4.39512
G1 X122.529 Y93.716 E4.41587
G1 X134.069 Y93.716 E4.98012
G1 X134.761 Y94.102 E5.01890
G1 X135.324 Y95.014 E5.07132
G1 X135.334 Y95.239 E5.08229
G1 X135.463 Y95.437 E5.09388
G1 X135.508 Y95.460 E5.09636
G1 X135.771 Y96.251 E5.13710
G1 X136.244 Y96.363 E5.16087
G1 X137.132 Y95.475 E5.22224
G1 X144.632 Y95.475 E5.58899
G1 X145.525 Y96.368 E5.65075
G1 X145.525 Y121.632 E6.88610
G1 X144.632 Y122.525 E6.94787
G1 X137.132 Y122.525 E7.31461
G1 X136.338 Y121.731 E7.36951
G1 X135.818 Y121.918 E7.39653
G1 X135.794 Y122.160 E7.40844
G1 X134.938 Y123.869 E7.50192
G1 X133.739 Y124.267 E7.56369
G1 X133.551 Y124.173 E7.57399
G1 X133.388 Y124.158 E7.58198
G1 X132.943 Y124.284 E7.60461
G1 X123.212 Y124.275 E8.08045
G1 X123.125 Y124.296 E8.08486
G1 X121.356 Y124.211 E8.17145
G1 X120.694 Y123.810 E8.20927
G1 X120.167 Y122.908 E8.26035
G1 X120.138 Y121.998 E8.30491
G1 X119.676 Y121.815 E8.32921
G1 X119.298 Y121.479 F15000.000
G1 X118.688 Y122.089 E8.37139 F600.000
G1 X111.549 Y122.089 E8.72048
G1 X110.911 Y121.451 E8.76460
G1 X110.911 Y96.549 E9.98231
G1 X111.549 Y95.911 E10.02643
G1 X118.688 Y95.911 E10.37552
G1 X119.326 Y96.549 E10.41964 F600.000
G1 X119.326 Y121.416 E11.63562
G1 X118.890 Y121.271 F15000.000
G1 X118.508 Y121.653 E11.66209 F600.000
G1 X111.729 Y121.653 E11.99354
G1 X111.347 Y121.271 E12.02001
G1 X111.347 Y96.729 E13.22007
G1 X111.729 Y96.347 E13.24654
G1 X118.508 Y96.347 E13.57799
G1 X118.890 Y96.729 E13.60446
G1 X118.890 Y121.196 E14.80085 F600.000
G1 X118.455 Y121.090 F15000.000
G1 X118.327 Y121.218 E14.80968 F600.000
G1 X111.910 Y121.218 E15.12348
G1 X111.782 Y121.090 E15.13230
G1 X111.782 Y96.910 E16.31472
G1 X111.910 Y96.782 E16.32354
G1 X118.327 Y96.782 E16.63734
G1 X118.455 Y96.910 E16.64617
G1 X118.455 Y121.015 E17.82491
G1 X119.762 Y121.398 F15000.000
G1 X119.762 Y97.208 E19.00779 F600.000
G1 X120.494 Y97.090 E19.04406
G1 X120.705 Y97.727 E19.07691
G1 X121.637 Y98.194 E19.12788
G1 X121.751 Y98.325 E19.13635
G1 X121.952 Y98.932 E19.16761
G1 X121.940 Y99.105 E19.17608
G1 X121.811 Y99.361 E19.19009
G1 X121.742 Y99.567 E19.20073
G1 X121.691 Y99.852 E19.21489
G1 X121.683 Y100.070 E19.22553
G1 X121.941 Y102.510 E19.34552
G1 X121.985 Y102.557 E19.34866
G1 X122.023 Y102.827 E19.36199
G1 X121.823 Y103.226 E19.38381
G1 X121.763 Y103.392 E19.39248
G1 X121.688 Y103.798 E19.41264
G1 X121.688 Y106.588 E19.54907
G1 X121.832 Y106.769 E19.56037
G1 X121.868 Y106.993 E19.57145
G1 X121.763 Y107.281 E19.58646
G1 X121.688 Y107.686 E19.60661
G1 X121.688 Y110.477 E19.74305
G1 X121.839 Y110.668 E19.75496
G1 X121.865 Y110.920 E19.76737
G1 X121.624 Y111.401 E19.79369
G1 X121.983 Y112.482 E19.84935
G1 X121.970 Y112.654 E19.85783
G1 X121.593 Y113.407 E19.89899
G1 X121.952 Y114.487 E19.95465
G1 X121.940 Y114.660 E19.96313
G1 X121.763 Y115.059 E19.98446
G1 X121.688 Y115.464 E20.00461
G1 X121.688 Y118.254 E20.14105
G1 X121.839 Y118.445 E20.15296
G1 X121.865 Y118.698 E20.16537
G1 X121.593 Y119.240 E20.19504
G1 X121.673 Y119.479 E20.20734
G1 X121.511 Y119.802 E20.22499
G1 X121.272 Y119.881 E20.23729
G1 X120.432 Y121.557 E20.32896
G1 X119.835 Y121.415 E20.35899
G1 E18.35899 F4800.00000
G92 E0
G1 X136.674 Y121.398 F15000.000
G1 E2.00000 F4800.00000
G1 X136.674 Y96.549 E3.21512 F600.000
G1 X137.312 Y95.911 E3.25923
G1 X144.451 Y95.911 E3.60833
G1 X145.089 Y96.549 E3.65245 F600.000
G1 X145.089 Y121.451 E4.87015
G1 X144.451 Y122.089 E4.91427
G1 X137.312 Y122.089 E5.26337
G1 X136.690 Y121.467 E5.30641
G1 X137.110 Y121.271 F15000.000
G1 X137.110 Y96.729 E6.50647 F600.000
G1 X137.492 Y96.347 E6.53294
G1 X144.271 Y96.347 E6.86439
G1 X144.653 Y96.729 E6.89086
G1 X144.653 Y121.271 E8.09092 F600.000
G1 X144.271 Y121.653 E8.11739
G1 X137.492 Y121.653 E8.44884
G1 X137.163 Y121.324 E8.47164
G1 X137.673 Y121.218 F15000.000
G1 X137.545 Y121.090 E8.48046 F600.000
G1 X137.545 Y96.910 E9.66288
G1 X137.673 Y96.782 E9.67170
G1 X144.090 Y96.782 E9.98550
G1 X144.218 Y96.910 E9.99433
G1 X144.218 Y121.090 E11.17674
G1 X144.090 Y121.218 E11.18556
G1 X137.748 Y121.218 E11.49570
G1 X136.238 Y120.660 F15000.000
G1 X135.642 Y120.858 E11.52643 F600.000
G1 X135.303 Y120.404 E11.55414
G1 X134.421 Y119.851 E11.60505
G1 X134.312 Y119.655 E11.61605
G1 X134.312 Y118.137 E11.69025
G1 X134.168 Y117.956 E11.70155
G1 X134.132 Y117.732 E11.71263
G1 X134.237 Y117.444 E11.72763
G1 X134.312 Y117.039 E11.74779
G1 X134.312 Y114.248 E11.88422
G1 X134.168 Y114.067 E11.89553
G1 X134.132 Y113.844 E11.90660
G1 X134.237 Y113.555 E11.92161
G1 X134.312 Y113.150 E11.94177
G1 X134.312 Y110.360 E12.07820
G1 X134.168 Y110.178 E12.08950
G1 X134.132 Y109.955 E12.10058
G1 X134.237 Y109.666 E12.11559
G1 X134.312 Y109.261 E12.13574
G1 X134.312 Y106.471 E12.27218
G1 X134.168 Y106.290 E12.28348
G1 X134.132 Y106.066 E12.29456
G1 X134.237 Y105.778 E12.30956
G1 X134.312 Y105.372 E12.32972
G1 X134.312 Y102.582 E12.46616
G1 X134.168 Y102.401 E12.47746
G1 X134.132 Y102.177 E12.48854
G1 X134.237 Y101.889 E12.50354
G1 X134.312 Y101.483 E12.52370
G1 X134.312 Y98.575 E12.66590
G1 X134.477 Y98.347 E12.67967
G1 X135.177 Y98.114 E12.71578
G1 X135.568 Y97.335 E12.75839
G1 X136.238 Y97.494 E12.79209
G1 X136.238 Y120.585 E13.92125
G1 E11.92125 F4800.00000
G92 E0
G1 X133.777 Y98.120 F15000.000
G1 E2.00000 F4800.00000
G1 X133.647 Y98.555 E2.02217 F600.000
G1 X133.876 Y98.845 E2.04024
G1 X133.876 Y101.458 E2.16803
G1 X133.819 Y101.764 E2.18324
G1 X133.621 Y102.191 E2.20628
G1 X133.647 Y102.444 E2.21869
G1 X133.876 Y102.733 E2.23675
G1 X133.876 Y105.347 E2.36454
G1 X133.819 Y105.653 E2.37976
G1 X133.621 Y106.080 E2.40279
G1 X133.647 Y106.333 E2.41520
G1 X133.876 Y106.622 E2.43327
G1 X133.876 Y109.236 E2.56106
G1 X133.819 Y109.541 E2.57627
G1 X133.621 Y109.969 E2.59931
G1 X133.647 Y110.221 E2.61172
G1 X133.876 Y110.511 E2.62978
G1 X133.876 Y113.124 E2.75757
G1 X133.819 Y113.430 E2.77278
G1 X133.621 Y113.858 E2.79582
G1 X133.647 Y114.110 E2.80823
G1 X133.876 Y114.400 E2.82629
G1 X133.876 Y117.013 E2.95408
G1 X133.819 Y117.319 E2.96930
G1 X133.621 Y117.747 E2.99233
G1 X133.647 Y117.999 E3.00474
G1 X133.876 Y118.289 E3.02281
G1 X133.876 Y119.896 E3.10138
G1 X133.985 Y120.092 E3.11238
G1 X135.003 Y120.730 E3.17110
G1 X135.246 Y121.056 E3.19097
G1 X135.407 Y121.633 E3.22029
G1 X135.369 Y122.038 E3.24016
G1 X134.629 Y123.513 E3.32084
G1 X133.773 Y123.797 E3.36495
G1 X133.530 Y123.675 E3.37824
G1 X133.304 Y123.685 E3.38932
G1 X133.174 Y123.766 E3.39679
G1 X132.882 Y123.848 E3.41161
G1 X131.263 Y123.848 E3.49082
G1 X131.061 Y123.812 E3.50082
G1 X130.933 Y123.848 E3.50733
G1 X129.314 Y123.848 E3.58653
G1 X129.112 Y123.812 E3.59653
G1 X128.984 Y123.848 E3.60304
G1 X127.364 Y123.848 E3.68225
G1 X127.163 Y123.812 E3.69225
G1 X127.035 Y123.848 E3.69876
G1 X125.415 Y123.848 E3.77796
G1 X125.214 Y123.812 E3.78797
G1 X125.086 Y123.848 E3.79448
G1 X123.466 Y123.848 E3.87368
G1 X123.275 Y123.811 E3.88322
G1 X123.082 Y123.858 E3.89292
G1 X121.487 Y123.781 E3.97101
G1 X121.015 Y123.495 E3.99802
G1 X120.599 Y122.784 E4.03830
G1 X120.581 Y122.232 E4.06531
G1 X121.581 Y120.237 E4.17440
G1 X122.062 Y120.078 E4.19918
G1 X122.223 Y119.755 E4.21683
G1 X122.064 Y119.274 E4.24161
G1 X122.379 Y118.645 E4.27602
G1 X122.353 Y118.392 E4.28843
G1 X122.124 Y118.103 E4.30649
G1 X122.124 Y115.489 E4.43428
G1 X122.181 Y115.184 E4.44949
G1 X122.410 Y114.694 E4.47593
G1 X122.422 Y114.521 E4.48441
G1 X122.064 Y113.441 E4.54007
G1 X122.441 Y112.688 E4.58123
G1 X122.453 Y112.515 E4.58971
G1 X122.094 Y111.435 E4.64537
G1 X122.379 Y110.867 E4.67643
G1 X122.353 Y110.615 E4.68884
G1 X122.124 Y110.325 E4.70690
G1 X122.124 Y107.712 E4.83469
G1 X122.181 Y107.406 E4.84991
G1 X122.379 Y106.979 E4.87294
G1 X122.353 Y106.726 E4.88535
G1 X122.124 Y106.436 E4.90342
G1 X122.124 Y103.823 E5.03121
G1 X122.181 Y103.517 E5.04642
G1 X122.224 Y103.398 E5.05261
G1 X122.548 Y102.752 E5.08797
G1 X122.510 Y102.482 E5.10130
G1 X122.359 Y102.320 E5.11212
G1 X122.119 Y100.055 E5.22350
G1 X122.125 Y99.899 E5.23110
G1 X122.166 Y99.676 E5.24222
G1 X122.215 Y99.528 E5.24982
G1 X122.410 Y99.139 E5.27113
G1 X122.422 Y98.966 E5.27960
G1 X122.107 Y98.017 E5.32850
G1 X121.994 Y97.886 E5.33698
G1 X121.062 Y97.419 E5.38794
G1 X120.778 Y96.563 E5.43206
G1 X121.715 Y94.692 E5.53439
G1 X121.920 Y94.468 E5.54921
G1 X122.299 Y94.234 E5.57097
G1 X122.590 Y94.152 E5.58580
G1 X124.210 Y94.152 E5.66500
G1 X124.411 Y94.188 E5.67500
G1 X124.539 Y94.152 E5.68151
G1 X126.159 Y94.152 E5.76072
G1 X126.360 Y94.188 E5.77072
G1 X126.488 Y94.152 E5.77723
G1 X128.108 Y94.152 E5.85643
G1 X128.309 Y94.188 E5.86643
G1 X128.437 Y94.152 E5.87294
G1 X130.057 Y94.152 E5.95215
G1 X130.258 Y94.188 E5.96215
G1 X130.386 Y94.152 E5.96866
G1 X132.006 Y94.152 E6.04786
G1 X132.207 Y94.188 E6.05787
G1 X132.336 Y94.152 E6.06438
G1 X133.955 Y94.152 E6.14358
G1 X134.450 Y94.428 E6.17128
G1 X134.894 Y95.147 E6.21262
G1 X134.910 Y95.513 E6.23056
G1 X135.039 Y95.712 E6.24214
G1 X135.152 Y95.769 E6.24832
G1 X135.436 Y96.625 E6.29243
G1 X134.869 Y97.758 E6.35438
G1 X133.848 Y98.097 E6.40698
G1 E4.40698 F4800.00000
G92 E0
G1 X122.612 Y120.354 F15000.000
G1 E2.00000 F4800.00000
G1 X122.774 Y120.031 E2.01765 F600.000
G1 X122.534 Y119.308 E2.05491
G1 X122.893 Y118.592 E2.09405
G1 X122.867 Y118.340 E2.10646
G1 X122.559 Y117.951 E2.13068
G1 X122.559 Y115.515 E2.24983
G1 X122.625 Y115.237 E2.26378
G1 X123.027 Y114.435 E2.30763
G1 X122.913 Y114.093 E2.32528
G1 X122.705 Y113.988 E2.33669
G1 X122.534 Y113.475 E2.36316
G1 X123.058 Y112.430 E2.42032
G1 X122.944 Y112.087 E2.43796
G1 X122.735 Y111.983 E2.44937
G1 X122.565 Y111.469 E2.47584
G1 X122.893 Y110.815 E2.51164
G1 X122.867 Y110.562 E2.52405
G1 X122.559 Y110.174 E2.54827
G1 X122.559 Y107.737 E2.66741
G1 X122.625 Y107.460 E2.68136
G1 X122.893 Y106.926 E2.71056
G1 X122.867 Y106.673 E2.72297
G1 X122.559 Y106.285 E2.74719
G1 X122.559 Y103.848 E2.86633
G1 X122.625 Y103.571 E2.88028
G1 X123.073 Y102.677 E2.92918
G1 X123.035 Y102.407 E2.94251
G1 X122.777 Y102.130 E2.96101
G1 X122.556 Y100.040 E3.06378
G1 X122.589 Y99.784 E3.07638
G1 X122.618 Y99.696 E3.08094
G1 X123.027 Y98.880 E3.12555
G1 X122.913 Y98.538 E3.14320
G1 X122.705 Y98.433 E3.15460
G1 X122.464 Y97.708 E3.19196
G1 X122.350 Y97.577 E3.20043
G1 X121.418 Y97.110 E3.25140
G1 X121.248 Y96.596 E3.27787
G1 X122.077 Y94.941 E3.36841
G1 X122.200 Y94.807 E3.37730
G1 X122.476 Y94.637 E3.39314
G1 X122.651 Y94.587 E3.40203
G1 X124.097 Y94.587 E3.47273
G1 X124.184 Y94.636 E3.47765
G1 X124.356 Y94.656 E3.48612
G1 X124.600 Y94.587 E3.49849
G1 X126.046 Y94.587 E3.56919
G1 X126.133 Y94.636 E3.57411
G1 X126.306 Y94.656 E3.58258
G1 X126.549 Y94.587 E3.59495
G1 X127.995 Y94.587 E3.66565
G1 X128.083 Y94.636 E3.67056
G1 X128.255 Y94.656 E3.67904
G1 X128.498 Y94.587 E3.69141
G1 X129.944 Y94.587 E3.76211
G1 X130.032 Y94.636 E3.76702
G1 X130.204 Y94.656 E3.77550
G1 X130.447 Y94.587 E3.78787
G1 X131.893 Y94.587 E3.85857
G1 X131.981 Y94.636 E3.86348
G1 X132.153 Y94.656 E3.87196
G1 X132.396 Y94.587 E3.88433
G1 X133.842 Y94.587 E3.95503
G1 X134.139 Y94.753 E3.97165
G1 X134.464 Y95.279 E4.00190
G1 X134.486 Y95.788 E4.02682
G1 X134.615 Y95.987 E4.03840
G1 X134.795 Y96.077 E4.04826
G1 X134.966 Y96.591 E4.07473
G1 X134.560 Y97.401 E4.11903
G1 X134.046 Y97.572 E4.14550
G1 X133.838 Y97.467 E4.15691
G1 X133.495 Y97.581 E4.17456
G1 X133.107 Y98.355 E4.21690
G1 X133.133 Y98.608 E4.22931
G1 X133.441 Y98.996 E4.25353
G1 X133.441 Y101.433 E4.37268
G1 X133.375 Y101.710 E4.38663
G1 X133.107 Y102.244 E4.41582
G1 X133.133 Y102.496 E4.42823
G1 X133.441 Y102.885 E4.45245
G1 X133.441 Y105.321 E4.57160
G1 X133.375 Y105.599 E4.58555
G1 X133.107 Y106.133 E4.61474
G1 X133.133 Y106.385 E4.62715
G1 X133.441 Y106.774 E4.65137
G1 X133.441 Y109.210 E4.77052
G1 X133.375 Y109.488 E4.78447
G1 X133.107 Y110.022 E4.81366
G1 X133.133 Y110.274 E4.82607
G1 X133.441 Y110.663 E4.85029
G1 X133.441 Y113.099 E4.96944
G1 X133.375 Y113.377 E4.98339
G1 X133.107 Y113.910 E5.01258
G1 X133.133 Y114.163 E5.02499
G1 X133.441 Y114.551 E5.04921
G1 X133.441 Y116.988 E5.16836
G1 X133.375 Y117.266 E5.18231
G1 X133.107 Y117.799 E5.21150
G1 X133.133 Y118.052 E5.22392
G1 X133.441 Y118.440 E5.24813
G1 X133.441 Y120.137 E5.33109
G1 X133.550 Y120.334 E5.34209
G1 X134.702 Y121.056 E5.40862
G1 X134.848 Y121.252 E5.42054
G1 X134.966 Y121.672 E5.44191
G1 X134.943 Y121.915 E5.45384
G1 X134.321 Y123.156 E5.52172
G1 X133.807 Y123.327 E5.54819
G1 X133.508 Y123.177 E5.56453
G1 X133.282 Y123.187 E5.57561
G1 X132.997 Y123.363 E5.59200
G1 X132.822 Y123.413 E5.60090
G1 X131.376 Y123.413 E5.67160
G1 X131.288 Y123.364 E5.67651
G1 X131.116 Y123.344 E5.68499
G1 X130.873 Y123.413 E5.69736
G1 X129.427 Y123.413 E5.76806
G1 X129.339 Y123.364 E5.77297
G1 X129.167 Y123.344 E5.78145
G1 X128.924 Y123.413 E5.79382
G1 X127.478 Y123.413 E5.86452
G1 X127.390 Y123.364 E5.86943
G1 X127.218 Y123.344 E5.87791
G1 X126.974 Y123.413 E5.89027
G1 X125.529 Y123.413 E5.96097
G1 X125.441 Y123.364 E5.96589
G1 X125.269 Y123.344 E5.97437
G1 X125.025 Y123.413 E5.98673
G1 X123.580 Y123.413 E6.05743
G1 X123.501 Y123.369 E6.06183
G1 X123.337 Y123.347 E6.06990
G1 X123.040 Y123.420 E6.08488
G1 X121.618 Y123.351 E6.15447
G1 X121.335 Y123.180 E6.17068
G1 X121.031 Y122.659 E6.20015
G1 X121.020 Y122.328 E6.21636
G1 X121.889 Y120.594 E6.31122
G1 X122.541 Y120.377 E6.34481
G1 X123.148 Y120.999 F15000.000
G1 X123.612 Y120.074 E6.39536 F600.000
G1 X123.498 Y119.732 E6.41301
G1 X123.061 Y119.513 E6.43689
G1 X123.004 Y119.342 E6.44572
G1 X123.499 Y118.355 E6.49967
G1 X123.320 Y117.973 E6.52029
G1 X123.089 Y117.919 E6.53191
G1 X122.995 Y117.800 E6.53931
G1 X122.995 Y115.540 E6.64981
G1 X123.026 Y115.410 E6.65636
G1 X123.612 Y114.241 E6.72028
G1 X123.498 Y113.899 E6.73793
G1 X123.061 Y113.680 E6.76182
G1 X123.004 Y113.509 E6.77064
G1 X123.642 Y112.235 E6.84028
G1 X123.528 Y111.893 E6.85792
G1 X123.092 Y111.674 E6.88181
G1 X123.035 Y111.503 E6.89063
G1 X123.499 Y110.578 E6.94124
G1 X123.320 Y110.196 E6.96186
G1 X123.089 Y110.141 E6.97347
G1 X122.995 Y110.022 E6.98088
G1 X122.995 Y107.762 E7.09138
G1 X123.026 Y107.632 E7.09793
G1 X123.499 Y106.689 E7.14952
G1 X123.320 Y106.307 E7.17014
G1 X123.089 Y106.252 E7.18175
G1 X122.995 Y106.133 E7.18916
