; generated by Slic3r 1.2.9 on 2015-09-07 at 18:20:28

; external perimeters extrusion width = 0.50mm
; perimeters extrusion width = 0.50mm
; infill extrusion width = 0.50mm
; solid infill extrusion width = 0.50mm
; top infill extrusion width = 0.50mm
; support material extrusion width = 0.25mm

M107
M190 S105 ; set bed temperature
M104 S240 ; set temperature
G28 X0 Y0
G28 Z0
G1 Z0.3 F200
G1 X15 Y20 F12000
M109 S240 ; wait for temperature to be reached
G21 ; set units to millimeters
G90 ; use absolute coordinates
M82 ; use absolute distances for extrusion
G92 E0
G1 Z0.300 F15000.000
G1 E-2.00000 F4800.00000
G92 E0
G1 X68.413 Y87.719 F15000.000
G1 E2.00000 F4800.00000
G1 X71.565 Y86.895 E2.15928 F600.000
G1 X141.565 Y86.895 E5.58225
G1 X143.790 Y87.292 E5.69277
G1 X145.740 Y88.434 E5.80330 F600.000
G1 X147.176 Y90.179 E5.91382
G1 X147.805 Y91.759 E5.99696
G1 X152.676 Y111.097 E6.97215
G1 X152.871 Y112.669 E7.04960
G1 X152.871 Y124.669 E7.63640
G1 X152.474 Y126.894 E7.74692
G1 X151.332 Y128.845 E7.85744
G1 X149.587 Y130.281 E7.96796
G1 X146.435 Y131.105 E8.12724
G1 X114.235 Y131.102 E9.70185
G1 X71.364 Y129.763 E11.79925
G1 X69.152 Y129.297 E11.90977
G1 X67.238 Y128.095 E12.02029
G1 X65.858 Y126.305 E12.13081
G1 X65.129 Y123.331 E12.28057
G1 X65.129 Y93.331 E13.74756
G1 X65.526 Y91.106 E13.85808
G1 X66.668 Y89.155 E13.96861
G1 X68.355 Y87.767 E14.07546
G1 E12.07546 F4800.00000
G92 E0
G1 X88.833 Y101.528 F15000.000
G1 E2.00000 F4800.00000
G1 X88.535 Y101.675 E2.01623 F780.000
G1 X88.221 Y101.781 E2.03246
G1 X87.896 Y101.846 E2.04868
G1 X87.565 Y101.868 E2.06491
G1 X87.233 Y101.846 E2.08114
G1 X86.908 Y101.781 E2.09737
G1 X86.593 Y101.674 E2.11365
G1 X86.290 Y101.524 E2.13017
G1 X86.020 Y101.343 E2.14605
G1 X85.771 Y101.125 E2.16228
G1 X85.552 Y100.875 E2.17851
G1 X85.367 Y100.599 E2.19474
G1 X85.221 Y100.302 E2.21096
G1 X85.114 Y99.987 E2.22719
G1 X85.049 Y99.662 E2.24342
G1 X85.027 Y99.331 E2.25965
G1 X85.049 Y98.999 E2.27588
G1 X85.114 Y98.674 E2.29210
G1 X85.221 Y98.360 E2.30833
G1 X85.367 Y98.062 E2.32456
G1 X85.552 Y97.786 E2.34079
G1 X85.771 Y97.537 E2.35702
G1 X86.020 Y97.318 E2.37325
G1 X86.296 Y97.133 E2.38947
G1 X86.594 Y96.987 E2.40570
G1 X86.908 Y96.880 E2.42193
G1 X87.233 Y96.815 E2.43816
G1 X87.557 Y96.794 E2.45404 F780.000
G1 X87.895 Y96.815 E2.47056
G1 X88.221 Y96.880 E2.48684
G1 X88.535 Y96.987 E2.50307
G1 X88.833 Y97.133 E2.51930
G1 X89.109 Y97.318 E2.53553
G1 X89.359 Y97.537 E2.55175
G1 X89.577 Y97.786 E2.56798
G1 X89.762 Y98.062 E2.58421
G1 X89.908 Y98.360 E2.60044
G1 X90.015 Y98.674 E2.61667
G1 X90.079 Y98.993 E2.63255
G1 X90.102 Y99.330 E2.64907
G1 X90.080 Y99.662 E2.66535
G1 X90.015 Y99.987 E2.68158
G1 X89.908 Y100.302 E2.69780
G1 X89.762 Y100.599 E2.71403
G1 X89.577 Y100.875 E2.73026
G1 X89.359 Y101.125 E2.74649
G1 X89.109 Y101.343 E2.76272
G1 X88.895 Y101.486 E2.77528
G1 X88.615 Y101.150 F15000.000
G1 X88.368 Y101.271 E2.78871 F780.000
G1 X88.108 Y101.360 E2.80215
G1 X87.839 Y101.413 E2.81558
G1 X87.565 Y101.431 E2.82902
G1 X87.290 Y101.413 E2.84246
G1 X87.021 Y101.360 E2.85589
G1 X86.760 Y101.271 E2.86935
G1 X86.509 Y101.146 E2.88307
G1 X86.286 Y100.997 E2.89620
G1 X86.079 Y100.816 E2.90963
G1 X85.898 Y100.609 E2.92307
G1 X85.745 Y100.381 E2.93650
G1 X85.624 Y100.134 E2.94994
G1 X85.536 Y99.874 E2.96338
G1 X85.482 Y99.605 E2.97681
G1 X85.464 Y99.331 E2.99025
G1 X85.482 Y99.056 E3.00368
G1 X85.536 Y98.787 E3.01712
G1 X85.624 Y98.527 E3.03056
G1 X85.745 Y98.280 E3.04399
G1 X85.898 Y98.052 E3.05743
G1 X86.079 Y97.845 E3.07086
G1 X86.286 Y97.664 E3.08430
G1 X86.514 Y97.512 E3.09773
G1 X86.761 Y97.390 E3.11117
G1 X87.021 Y97.302 E3.12461
G1 X87.290 Y97.248 E3.13804
G1 X87.558 Y97.231 E3.15116 F780.000
G1 X87.838 Y97.248 E3.16489
G1 X88.108 Y97.302 E3.17835
G1 X88.368 Y97.390 E3.19178
G1 X88.615 Y97.512 E3.20522
G1 X88.843 Y97.664 E3.21865
G1 X89.050 Y97.845 E3.23209
G1 X89.231 Y98.052 E3.24553
G1 X89.384 Y98.280 E3.25896
G1 X89.505 Y98.527 E3.27240
G1 X89.593 Y98.787 E3.28583
G1 X89.646 Y99.050 E3.29896
G1 X89.665 Y99.330 E3.31268
G1 X89.647 Y99.605 E3.32614
G1 X89.593 Y99.874 E3.33957
G1 X89.505 Y100.134 E3.35301
G1 X89.384 Y100.381 E3.36645
G1 X89.231 Y100.609 E3.37988
G1 X89.050 Y100.816 E3.39332
G1 X88.843 Y100.997 E3.40675
G1 X88.677 Y101.108 E3.41652
G1 X88.609 Y101.424 F15000.000
G1 E1.41652 F4800.00000
G92 E0
G1 X97.049 Y99.662 F15000.000
G1 E2.00000 F4800.00000
G1 X97.027 Y99.331 E2.01623 F780.000
G1 X97.049 Y99.000 E2.03245
G1 X97.114 Y98.674 E2.04868
G1 X97.221 Y98.360 E2.06491
G1 X97.367 Y98.062 E2.08114
G1 X97.552 Y97.786 E2.09737
G1 X97.771 Y97.537 E2.11360
G1 X98.020 Y97.318 E2.12982
G1 X98.296 Y97.133 E2.14605
G1 X98.594 Y96.987 E2.16228
G1 X98.908 Y96.880 E2.17851
G1 X99.233 Y96.815 E2.19473
G1 X99.565 Y96.794 E2.21096 F780.000
G1 X99.896 Y96.815 E2.22719
G1 X100.221 Y96.880 E2.24342
G1 X100.535 Y96.987 E2.25965
G1 X100.833 Y97.133 E2.27588
G1 X101.109 Y97.318 E2.29211
G1 X101.358 Y97.537 E2.30833
G1 X101.577 Y97.786 E2.32456
G1 X101.762 Y98.062 E2.34079
G1 X101.908 Y98.360 E2.35701
G1 X102.015 Y98.674 E2.37325
G1 X102.080 Y99.000 E2.38948
G1 X102.102 Y99.331 E2.40570
G1 X102.080 Y99.662 E2.42193
G1 X102.015 Y99.987 E2.43816
G1 X101.908 Y100.302 E2.45439
G1 X101.762 Y100.599 E2.47062
G1 X101.577 Y100.875 E2.48684
G1 X101.358 Y101.125 E2.50307
G1 X101.109 Y101.343 E2.51930
G1 X100.833 Y101.528 E2.53553
G1 X100.535 Y101.675 E2.55175
G1 X100.221 Y101.781 E2.56799
G1 X99.896 Y101.846 E2.58421
G1 X99.565 Y101.868 E2.60044
G1 X99.233 Y101.846 E2.61667
G1 X98.908 Y101.781 E2.63289
G1 X98.594 Y101.675 E2.64912
G1 X98.296 Y101.528 E2.66535
G1 X98.020 Y101.343 E2.68158
G1 X97.771 Y101.125 E2.69781
G1 X97.552 Y100.875 E2.71404
G1 X97.367 Y100.599 E2.73026
G1 X97.221 Y100.302 E2.74649
G1 X97.114 Y99.987 E2.76272
G1 X97.064 Y99.735 E2.77529
G1 X97.482 Y99.605 F15000.000
G1 X97.464 Y99.331 E2.78872 F780.000
G1 X97.482 Y99.056 E2.80215
G1 X97.536 Y98.787 E2.81559
G1 X97.624 Y98.527 E2.82903
G1 X97.745 Y98.280 E2.84246
G1 X97.898 Y98.052 E2.85590
G1 X98.079 Y97.845 E2.86934
G1 X98.286 Y97.664 E2.88277
G1 X98.514 Y97.512 E2.89621
G1 X98.761 Y97.390 E2.90964
G1 X99.021 Y97.302 E2.92308
G1 X99.290 Y97.248 E2.93651
G1 X99.565 Y97.230 E2.94995 F780.000
G1 X99.839 Y97.248 E2.96339
G1 X100.108 Y97.302 E2.97682
G1 X100.368 Y97.390 E2.99026
G1 X100.615 Y97.512 E3.00369
G1 X100.843 Y97.664 E3.01713
G1 X101.050 Y97.845 E3.03056
G1 X101.231 Y98.052 E3.04400
G1 X101.384 Y98.280 E3.05743
G1 X101.505 Y98.527 E3.07087
G1 X101.594 Y98.787 E3.08431
G1 X101.647 Y99.056 E3.09774
G1 X101.665 Y99.331 E3.11118
G1 X101.647 Y99.605 E3.12461
G1 X101.594 Y99.874 E3.13805
G1 X101.505 Y100.135 E3.15149
G1 X101.384 Y100.381 E3.16492
G1 X101.231 Y100.609 E3.17836
G1 X101.050 Y100.816 E3.19180
G1 X100.843 Y100.997 E3.20523
G1 X100.615 Y101.150 E3.21867
G1 X100.368 Y101.271 E3.23210
G1 X100.108 Y101.360 E3.24554
G1 X99.839 Y101.413 E3.25897
G1 X99.565 Y101.431 E3.27241
G1 X99.290 Y101.413 E3.28585
G1 X99.021 Y101.360 E3.29928
G1 X98.761 Y101.271 E3.31272
G1 X98.514 Y101.150 E3.32615
G1 X98.286 Y100.997 E3.33959
G1 X98.079 Y100.816 E3.35302
G1 X97.898 Y100.609 E3.36646
G1 X97.745 Y100.381 E3.37989
G1 X97.624 Y100.135 E3.39333
G1 X97.536 Y99.874 E3.40677
G1 X97.497 Y99.678 E3.41654
G1 X97.230 Y99.494 F15000.000
G1 E1.41654 F4800.00000
G92 E0
G1 X78.102 Y99.331 F15000.000
G1 E2.00000 F4800.00000
G1 X78.080 Y99.662 E2.01623 F780.000
G1 X78.015 Y99.987 E2.03246
G1 X77.908 Y100.302 E2.04869
G1 X77.762 Y100.599 E2.06492
G1 X77.577 Y100.875 E2.08114
G1 X77.358 Y101.125 E2.09737
G1 X77.109 Y101.343 E2.11360
G1 X76.833 Y101.528 E2.12982
G1 X76.535 Y101.675 E2.14605
G1 X76.221 Y101.781 E2.16228
G1 X75.896 Y101.846 E2.17851
G1 X75.565 Y101.868 E2.19474
G1 X75.233 Y101.846 E2.21097
G1 X74.908 Y101.781 E2.22719
G1 X74.594 Y101.675 E2.24342
G1 X74.296 Y101.528 E2.25965
G1 X74.020 Y101.343 E2.27588
G1 X73.771 Y101.125 E2.29210
G1 X73.552 Y100.875 E2.30834
G1 X73.367 Y100.599 E2.32456
G1 X73.221 Y100.302 E2.34079
G1 X73.114 Y99.987 E2.35702
G1 X73.049 Y99.662 E2.37325
G1 X73.027 Y99.331 E2.38948
G1 X73.049 Y99.000 E2.40570
G1 X73.114 Y98.674 E2.42193
G1 X73.221 Y98.360 E2.43817
G1 X73.367 Y98.062 E2.45439
G1 X73.552 Y97.786 E2.47062
G1 X73.771 Y97.537 E2.48685
G1 X74.020 Y97.318 E2.50307
G1 X74.296 Y97.133 E2.51930
G1 X74.594 Y96.987 E2.53553
G1 X74.908 Y96.880 E2.55176
G1 X75.233 Y96.815 E2.56798
G1 X75.565 Y96.794 E2.58421 F780.000
G1 X75.896 Y96.815 E2.60044
G1 X76.221 Y96.880 E2.61667
G1 X76.535 Y96.987 E2.63290
G1 X76.833 Y97.133 E2.64913
G1 X77.109 Y97.318 E2.66536
G1 X77.358 Y97.537 E2.68158
G1 X77.577 Y97.786 E2.69781
G1 X77.762 Y98.062 E2.71404
G1 X77.908 Y98.360 E2.73026
G1 X78.015 Y98.674 E2.74650
G1 X78.080 Y99.000 E2.76273
G1 X78.097 Y99.256 E2.77529
G1 X77.665 Y99.331 F15000.000
G1 X77.647 Y99.605 E2.78872 F780.000
G1 X77.594 Y99.874 E2.80216
G1 X77.505 Y100.135 E2.81559
G1 X77.384 Y100.381 E2.82903
G1 X77.231 Y100.609 E2.84246
G1 X77.050 Y100.816 E2.85590
G1 X76.843 Y100.997 E2.86934
G1 X76.615 Y101.150 E2.88277
G1 X76.368 Y101.271 E2.89621
G1 X76.108 Y101.360 E2.90964
G1 X75.839 Y101.413 E2.92308
G1 X75.565 Y101.431 E2.93651
G1 X75.290 Y101.413 E2.94995
G1 X75.021 Y101.360 E2.96339
G1 X74.761 Y101.271 E2.97682
G1 X74.514 Y101.150 E2.99026
G1 X74.286 Y100.997 E3.00369
G1 X74.079 Y100.816 E3.01713
G1 X73.898 Y100.609 E3.03057
G1 X73.745 Y100.381 E3.04400
G1 X73.624 Y100.135 E3.05744
G1 X73.536 Y99.874 E3.07087
G1 X73.482 Y99.605 E3.08431
G1 X73.464 Y99.331 E3.09774
G1 X73.482 Y99.056 E3.11118
G1 X73.536 Y98.787 E3.12462
G1 X73.624 Y98.527 E3.13805
G1 X73.745 Y98.280 E3.15149
G1 X73.898 Y98.052 E3.16492
G1 X74.079 Y97.845 E3.17836
G1 X74.286 Y97.664 E3.19179
G1 X74.514 Y97.512 E3.20523
G1 X74.761 Y97.390 E3.21867
G1 X75.021 Y97.302 E3.23210
G1 X75.290 Y97.248 E3.24554
G1 X75.565 Y97.230 E3.25897 F780.000
G1 X75.839 Y97.248 E3.27241
G1 X76.108 Y97.302 E3.28584
G1 X76.368 Y97.390 E3.29928
G1 X76.615 Y97.512 E3.31272
G1 X76.843 Y97.664 E3.32615
G1 X77.050 Y97.845 E3.33959
G1 X77.231 Y98.052 E3.35302
G1 X77.384 Y98.280 E3.36646
G1 X77.505 Y98.527 E3.37989
G1 X77.594 Y98.787 E3.39333
G1 X77.647 Y99.056 E3.40677
G1 X77.660 Y99.256 E3.41654
G1 X77.900 Y99.473 F15000.000
G1 E1.41654 F4800.00000
G92 E0
G1 X72.250 Y104.645 F15000.000
G1 E2.00000 F4800.00000
G1 X72.250 Y94.016 E2.51974 F960.000
G1 X102.879 Y94.016 E4.01748
G1 X102.879 Y104.645 E4.53722
G1 X72.325 Y104.645 E6.03128
G1 X71.815 Y105.081 F15000.000
G1 X71.815 Y93.581 E6.59363 F780.000
G1 X103.315 Y93.581 E8.13396
G1 X103.315 Y105.081 E8.69631
G1 X71.890 Y105.081 E10.23298
G1 X72.065 Y104.648 F15000.000
G1 E8.23298 F4800.00000
G92 E0
G1 X72.742 Y100.422 F15000.000
G1 E2.00000 F4800.00000
G1 X72.652 Y99.726 E2.07368 F600.000
G1 X72.639 Y99.342 E2.11407
G1 X72.652 Y98.935 E2.15681
G1 X72.742 Y98.239 E2.23049
G1 X72.764 Y97.868 F15000.000
G1 X72.872 Y97.002 E2.27316 F1200.000
G1 X73.029 Y96.145 E2.31576
G1 X73.236 Y95.299 E2.35836
G1 X73.521 Y94.387 E2.40510
G1 X73.061 Y94.387 F15000.000
G1 X72.838 Y95.107 E2.44200 F1200.000
G1 X72.620 Y95.976 E2.48577
G1 X73.745 Y97.067 F15000.000
G1 X73.852 Y96.467 E2.51554 F1200.000
G1 X74.052 Y95.619 E2.55814
G1 X74.172 Y95.201 E2.57944
G1 X74.446 Y94.387 E2.62146
G1 X73.983 Y94.387 F15000.000
G1 X73.720 Y95.190 E2.66280 F1200.000
G1 X73.500 Y96.033 E2.70539
G1 X73.331 Y96.888 E2.74799
G1 X73.232 Y97.598 E2.78306
G1 X74.242 Y96.747 F15000.000
G1 X74.468 Y95.748 E2.83314 F1200.000
G1 X74.721 Y94.915 E2.87573
G1 X74.913 Y94.387 E2.90322
G1 X75.380 Y94.387 F15000.000
G1 X75.098 Y95.160 E2.94350 F1200.000
G1 X74.969 Y95.576 E2.96480
G1 X74.726 Y96.551 E3.01391
G1 X75.194 Y96.447 F15000.000
G1 X75.439 Y95.524 E3.06058 F1200.000
G1 X75.575 Y95.110 E3.08188
G1 X75.851 Y94.387 E3.11977
G1 X76.324 Y94.387 F15000.000
G1 X76.013 Y95.178 E3.16134 F1200.000
G1 X75.875 Y95.591 E3.18264
G1 X75.645 Y96.428 E3.22508
G1 X76.083 Y96.475 F15000.000
G1 X76.274 Y95.775 E3.26055 F1200.000
G1 X76.410 Y95.361 E3.28186
G1 X76.802 Y94.387 E3.33323
G1 X77.281 Y94.387 F15000.000
G1 X77.074 Y94.847 E3.35790 F1200.000
G1 X76.767 Y95.662 E3.40050
G1 X76.504 Y96.585 E3.44743
G1 X76.911 Y96.759 F15000.000
G1 X77.091 Y96.082 E3.48171 F1200.000
G1 X77.226 Y95.667 E3.50301
G1 X77.544 Y94.856 E3.54561
G1 X77.765 Y94.387 E3.57100
G1 X78.255 Y94.387 F15000.000
G1 X77.966 Y94.980 E3.60328 F1200.000
G1 X77.645 Y95.790 E3.64588
G1 X77.509 Y96.204 E3.66718
G1 X77.302 Y97.001 E3.70748
G1 X77.677 Y97.338 F15000.000
G1 X77.892 Y96.444 E3.75245 F1200.000
G1 X78.171 Y95.619 E3.79504
G1 X78.521 Y94.821 E3.83764
G1 X78.748 Y94.387 E3.86162
G1 X79.248 Y94.387 F15000.000
G1 X78.837 Y95.168 E3.90479 F1200.000
G1 X78.504 Y95.973 E3.94738
G1 X78.244 Y96.804 E3.98997
G1 X78.143 Y97.228 E4.01127
G1 X78.038 Y97.810 E4.04019
G1 X78.384 Y98.632 F15000.000
G1 X78.493 Y97.714 E4.08541 F1200.000
G1 X78.576 Y97.286 E4.10671
G1 X78.803 Y96.445 E4.14930
G1 X78.946 Y96.034 E4.17060
G1 X79.289 Y95.233 E4.21320
G1 X79.488 Y94.846 E4.23450
G1 X79.759 Y94.387 E4.26057
G1 X80.277 Y94.387 F15000.000
G1 X79.888 Y95.024 E4.29710 F1200.000
G1 X79.687 Y95.410 E4.31840
G1 X79.345 Y96.211 E4.36099
G1 X79.203 Y96.623 E4.38229
G1 X78.983 Y97.466 E4.42488
G1 X78.905 Y97.894 E4.44618
G1 X78.812 Y98.760 E4.48877
G1 X78.798 Y99.196 E4.51007
G1 X78.834 Y100.066 E4.55266
G1 X78.885 Y100.499 E4.57397
G1 X79.051 Y101.354 E4.61656
G1 X79.165 Y101.774 E4.63786
G1 X79.457 Y102.595 E4.68045
G1 X79.633 Y102.993 E4.70175
G1 X80.043 Y103.762 E4.74434
G1 X80.379 Y104.275 E4.77433
G1 X79.852 Y104.275 F15000.000
G1 X79.463 Y103.623 E4.81146 F1200.000
G1 X79.265 Y103.235 E4.83277
G1 X79.086 Y102.838 E4.85407
G1 X78.785 Y102.020 E4.89666
G1 X78.564 Y101.178 E4.93925
G1 X78.483 Y100.750 E4.96055
G1 X78.392 Y99.988 E4.99804
G1 X78.056 Y100.825 F15000.000
G1 X78.201 Y101.547 E5.03405 F1200.000
G1 X78.314 Y101.968 E5.05535
G1 X78.597 Y102.792 E5.09794
G1 X78.953 Y103.587 E5.14053
G1 X79.337 Y104.275 E5.17907
G1 X78.831 Y104.275 F15000.000
G1 X78.502 Y103.659 E5.21323 F1200.000
G1 X78.156 Y102.859 E5.25582
G1 X77.880 Y102.033 E5.29842
G1 X77.700 Y101.296 E5.33550
G1 X77.330 Y101.641 F15000.000
G1 X77.480 Y102.217 E5.36462 F1200.000
G1 X77.759 Y103.042 E5.40721
G1 X78.107 Y103.841 E5.44981
G1 X78.331 Y104.275 E5.47367
G1 X77.839 Y104.275 F15000.000
G1 X77.579 Y103.741 E5.50270 F1200.000
G1 X77.254 Y102.933 E5.54530
G1 X77.116 Y102.520 E5.56660
G1 X76.941 Y101.887 E5.59868
G1 X76.536 Y102.066 F15000.000
G1 X76.661 Y102.523 E5.62188 F1200.000
G1 X76.943 Y103.347 E5.66448
G1 X77.351 Y104.275 E5.71401
G1 X76.866 Y104.275 F15000.000
G1 X76.686 Y103.874 E5.73550 F1200.000
G1 X76.376 Y103.060 E5.77809
G1 X76.115 Y102.180 E5.82297
G1 X75.680 Y102.231 F15000.000
G1 X75.861 Y102.885 E5.85612 F1200.000
G1 X75.997 Y103.298 E5.87742
G1 X76.388 Y104.275 E5.92885
G1 X75.912 Y104.275 F15000.000
G1 X75.518 Y103.241 E5.98294 F1200.000
G1 X75.228 Y102.217 E6.03501
G1 X74.758 Y102.121 F15000.000
G1 X74.952 Y102.884 E6.07351 F1200.000
G1 X75.079 Y103.301 E6.09481
G1 X75.439 Y104.275 E6.14558
G1 X74.968 Y104.275 F15000.000
G1 X74.678 Y103.478 E6.18702 F1200.000
G1 X74.550 Y103.062 E6.20833
G1 X74.272 Y101.929 E6.26536
G1 X73.771 Y101.617 F15000.000
G1 X73.859 Y102.092 E6.28899 F1200.000
G1 X74.062 Y102.939 E6.33159
G1 X74.317 Y103.772 E6.37418
G1 X74.501 Y104.275 E6.40035
G1 X74.035 Y104.275 F15000.000
G1 X73.727 Y103.354 E6.44781 F1200.000
G1 X73.505 Y102.512 E6.49041
G1 X73.335 Y101.658 E6.53301
G1 X73.253 Y101.094 E6.56085
G1 X72.779 Y100.791 F15000.000
G1 X72.913 Y101.773 E6.60930 F1200.000
G1 X73.085 Y102.627 E6.65190
G1 X73.307 Y103.469 E6.69450
G1 X73.571 Y104.275 E6.73595
G1 X73.110 Y104.275 F15000.000
G1 X72.802 Y103.284 E6.78670 F1200.000
G1 X72.620 Y102.542 E6.82403
G1 X72.620 Y104.188 F15000.000
G1 X72.650 Y104.275 E6.82852 F1200.000
G1 E4.82852 F4800.00000
G92 E0
G1 X80.916 Y104.275 F15000.000
G1 E2.00000 F4800.00000
G1 X80.471 Y103.628 E2.03841 F1200.000
G1 X80.252 Y103.251 E2.05971
G1 X80.053 Y102.864 E2.08101
G1 X79.718 Y102.060 E2.12360
G1 X79.582 Y101.646 E2.14490
G1 X79.376 Y100.800 E2.18749
G1 X79.307 Y100.370 E2.20879
