; generated by Slic3r 1.2.9 on 2015-09-08 at 11:50:38

; external perimeters extrusion width = 0.50mm
; perimeters extrusion width = 0.50mm
; infill extrusion width = 0.50mm
; solid infill extrusion width = 0.50mm
; top infill extrusion width = 0.50mm
; support material extrusion width = 0.25mm

M107
M190 S105 ; set bed temperature
M104 S240 ; set temperature
G28 X0 Y0
G28 Z0
G1 Z0.3 F200
G1 X15 Y20 F12000
M109 S240 ; wait for temperature to be reached
G21 ; set units to millimeters
G90 ; use absolute coordinates
M82 ; use absolute distances for extrusion
G92 E0
G1 Z0.300 F15000.000
G1 E-2.00000 F4800.00000
G92 E0
G1 X69.230 Y70.211 F15000.000
G1 E2.00000 F4800.00000
G1 X71.055 Y68.878 E2.11052 F600.000
G1 X73.879 Y68.226 E2.25224
G1 X145.879 Y68.226 E5.77301
G1 X148.104 Y68.623 E5.88353
G1 X150.055 Y69.764 E5.99405 F600.000
G1 X151.490 Y71.510 E6.10458
G1 X152.315 Y74.661 E6.26386
G1 X152.312 Y86.853 E6.86003
G1 X151.199 Y124.192 E8.68669
G1 X150.553 Y143.553 E9.63398
G1 X150.082 Y145.764 E9.74451
G1 X148.876 Y147.675 E9.85503
G1 X147.083 Y149.052 E9.96555
G1 X144.121 Y149.774 E10.11466
G1 X72.121 Y149.774 E13.63543
G1 X69.896 Y149.377 E13.74595
G1 X67.945 Y148.236 E13.85647
G1 X66.510 Y146.490 E13.96699
G1 X65.685 Y143.339 E14.12628
G1 X65.686 Y131.228 E14.71851
G1 X66.341 Y93.630 E16.55728
G1 X67.454 Y74.292 E17.50450
G1 X67.978 Y72.093 E17.61502
G1 X69.188 Y70.274 E17.72187
G1 E15.72187 F4800.00000
G92 E0
G1 X99.299 Y103.333 F15000.000
G1 E2.00000 F4800.00000
G1 X98.860 Y103.626 E2.02584 F780.000
G1 X98.367 Y103.869 E2.05270
G1 X97.831 Y104.048 E2.08034
G1 X97.313 Y104.151 E2.10618
G1 X96.766 Y104.187 E2.13296
G1 X96.220 Y104.151 E2.15974
G1 X95.682 Y104.044 E2.18653
G1 X95.164 Y103.868 E2.21331
G1 X94.673 Y103.626 E2.24009
G1 X94.217 Y103.322 E2.26687
G1 X93.805 Y102.961 E2.29366
G1 X93.444 Y102.549 E2.32044
G1 X93.140 Y102.094 E2.34722
G1 X92.898 Y101.602 E2.37400
G1 X92.722 Y101.084 E2.40078
G1 X92.615 Y100.547 E2.42756
G1 X92.579 Y100.000 E2.45435
G1 X92.615 Y99.453 E2.48113
G1 X92.722 Y98.916 E2.50791
G1 X92.898 Y98.398 E2.53469
G1 X93.140 Y97.906 E2.56148
G1 X93.444 Y97.451 E2.58826
G1 X93.805 Y97.039 E2.61504
G1 X94.217 Y96.678 E2.64182
G1 X94.673 Y96.374 E2.66861
G1 X95.164 Y96.132 E2.69539
G1 X95.682 Y95.956 E2.72217
G1 X96.220 Y95.849 E2.74896
G1 X96.747 Y95.814 E2.77479 F780.000
G1 X97.311 Y95.848 E2.80243
G1 X97.850 Y95.956 E2.82929
G1 X98.368 Y96.132 E2.85608
G1 X98.860 Y96.374 E2.88286
G1 X99.315 Y96.678 E2.90964
G1 X99.727 Y97.039 E2.93642
G1 X100.088 Y97.451 E2.96320
G1 X100.392 Y97.906 E2.98999
G1 X100.634 Y98.398 E3.01677
G1 X100.811 Y98.916 E3.04355
G1 X100.917 Y99.453 E3.07033
G1 X100.953 Y100.002 E3.09720
G1 X100.914 Y100.565 E3.12483
G1 X100.811 Y101.084 E3.15067
G1 X100.634 Y101.602 E3.17745
G1 X100.392 Y102.094 E3.20424
G1 X100.088 Y102.549 E3.23102
G1 X99.726 Y102.962 E3.25788
G1 X99.356 Y103.283 E3.28185
G1 X99.034 Y102.986 F15000.000
G1 X98.641 Y103.248 E3.30495 F780.000
G1 X98.201 Y103.465 E3.32897
G1 X97.719 Y103.626 E3.35381
G1 X97.256 Y103.718 E3.37691
G1 X96.766 Y103.751 E3.40090
G1 X96.277 Y103.718 E3.42489
G1 X95.795 Y103.623 E3.44888
G1 X95.331 Y103.465 E3.47287
G1 X94.891 Y103.248 E3.49686
G1 X94.483 Y102.976 E3.52085
G1 X94.114 Y102.652 E3.54484
G1 X93.791 Y102.283 E3.56883
G1 X93.518 Y101.875 E3.59282
G1 X93.301 Y101.435 E3.61681
G1 X93.143 Y100.971 E3.64080
G1 X93.048 Y100.490 E3.66479
G1 X93.016 Y100.000 E3.68878
G1 X93.048 Y99.510 E3.71277
G1 X93.143 Y99.029 E3.73676
G1 X93.301 Y98.565 E3.76075
G1 X93.518 Y98.125 E3.78474
G1 X93.791 Y97.717 E3.80873
G1 X94.114 Y97.348 E3.83272
G1 X94.483 Y97.024 E3.85671
G1 X94.891 Y96.752 E3.88070
G1 X95.331 Y96.535 E3.90469
G1 X95.795 Y96.377 E3.92868
G1 X96.277 Y96.282 E3.95267
G1 X96.748 Y96.251 E3.97577 F780.000
G1 X97.255 Y96.281 E4.00061
G1 X97.737 Y96.377 E4.02463
G1 X98.201 Y96.535 E4.04862
G1 X98.641 Y96.752 E4.07261
G1 X99.049 Y97.024 E4.09660
G1 X99.418 Y97.348 E4.12059
G1 X99.742 Y97.717 E4.14458
G1 X100.014 Y98.125 E4.16857
G1 X100.231 Y98.565 E4.19256
G1 X100.389 Y99.029 E4.21655
G1 X100.485 Y99.510 E4.24054
G1 X100.517 Y100.001 E4.26456
G1 X100.481 Y100.507 E4.28940
G1 X100.389 Y100.971 E4.31250
G1 X100.231 Y101.435 E4.33649
G1 X100.014 Y101.875 E4.36048
G1 X99.742 Y102.283 E4.38447
G1 X99.418 Y102.652 E4.40849
G1 X99.091 Y102.936 E4.42967
G1 X99.085 Y103.455 F15000.000
G1 E2.42967 F4800.00000
G92 E0
G1 X106.315 Y100.657 F15000.000
G1 E2.00000 F4800.00000
G1 X106.251 Y100.331 E2.01623 F780.000
G1 X106.229 Y100.000 E2.03246
G1 X106.251 Y99.669 E2.04868
G1 X106.315 Y99.343 E2.06491
G1 X106.422 Y99.029 E2.08114
G1 X106.569 Y98.731 E2.09737
G1 X106.753 Y98.456 E2.11360
G1 X106.972 Y98.206 E2.12983
G1 X107.222 Y97.987 E2.14605
G1 X107.492 Y97.807 E2.16194
G1 X107.794 Y97.656 E2.17845
G1 X108.109 Y97.549 E2.19474
G1 X108.435 Y97.485 E2.21096
G1 X108.759 Y97.463 E2.22684 F780.000
G1 X109.096 Y97.484 E2.24336
G1 X109.423 Y97.549 E2.25965
G1 X109.737 Y97.656 E2.27587
G1 X110.035 Y97.803 E2.29210
G1 X110.311 Y97.987 E2.30833
G1 X110.560 Y98.206 E2.32456
G1 X110.779 Y98.456 E2.34079
G1 X110.959 Y98.726 E2.35667
G1 X111.110 Y99.028 E2.37319
G1 X111.217 Y99.343 E2.38947
G1 X111.282 Y99.669 E2.40570
G1 X111.303 Y100.000 E2.42192
G1 X111.282 Y100.331 E2.43815
G1 X111.217 Y100.657 E2.45438
G1 X111.110 Y100.972 E2.47066
G1 X110.959 Y101.274 E2.48718
G1 X110.779 Y101.544 E2.50306
G1 X110.560 Y101.794 E2.51929
G1 X110.311 Y102.013 E2.53552
G1 X110.035 Y102.197 E2.55175
G1 X109.737 Y102.344 E2.56798
G1 X109.423 Y102.451 E2.58420
G1 X109.097 Y102.515 E2.60043
G1 X108.765 Y102.537 E2.61671
G1 X108.428 Y102.514 E2.63324
G1 X108.109 Y102.451 E2.64911
G1 X107.794 Y102.344 E2.66540
G1 X107.492 Y102.193 E2.68191
G1 X107.222 Y102.013 E2.69780
G1 X106.972 Y101.794 E2.71402
G1 X106.753 Y101.544 E2.73025
G1 X106.569 Y101.269 E2.74648
G1 X106.422 Y100.971 E2.76271
G1 X106.340 Y100.728 E2.77527
G1 X106.737 Y100.544 F15000.000
G1 X106.684 Y100.274 E2.78871 F780.000
G1 X106.666 Y100.000 E2.80214
G1 X106.684 Y99.726 E2.81558
G1 X106.737 Y99.456 E2.82901
G1 X106.825 Y99.196 E2.84245
G1 X106.947 Y98.950 E2.85588
G1 X107.100 Y98.721 E2.86932
G1 X107.281 Y98.515 E2.88276
G1 X107.487 Y98.334 E2.89619
G1 X107.711 Y98.184 E2.90932
G1 X107.962 Y98.059 E2.92304
G1 X108.222 Y97.971 E2.93650
G1 X108.492 Y97.917 E2.94993
G1 X108.760 Y97.900 E2.96305 F780.000
G1 X109.040 Y97.917 E2.97678
G1 X109.310 Y97.971 E2.99024
G1 X109.570 Y98.059 E3.00367
G1 X109.816 Y98.181 E3.01711
G1 X110.045 Y98.334 E3.03055
G1 X110.251 Y98.515 E3.04398
G1 X110.433 Y98.721 E3.05742
G1 X110.582 Y98.944 E3.07054
G1 X110.707 Y99.196 E3.08427
G1 X110.795 Y99.456 E3.09772
G1 X110.849 Y99.726 E3.11116
G1 X110.867 Y100.000 E3.12459
G1 X110.849 Y100.274 E3.13803
G1 X110.795 Y100.544 E3.15147
G1 X110.707 Y100.804 E3.16492
G1 X110.582 Y101.056 E3.17864
G1 X110.433 Y101.279 E3.19177
G1 X110.251 Y101.485 E3.20521
G1 X110.045 Y101.666 E3.21864
G1 X109.816 Y101.819 E3.23208
G1 X109.570 Y101.941 E3.24551
G1 X109.310 Y102.029 E3.25895
G1 X109.040 Y102.083 E3.27239
G1 X108.766 Y102.101 E3.28584
G1 X108.486 Y102.081 E3.29957
G1 X108.222 Y102.029 E3.31269
G1 X107.962 Y101.941 E3.32615
G1 X107.711 Y101.816 E3.33987
G1 X107.487 Y101.666 E3.35300
G1 X107.281 Y101.485 E3.36643
G1 X107.100 Y101.279 E3.37987
G1 X106.947 Y101.050 E3.39330
G1 X106.825 Y100.804 E3.40674
G1 X106.761 Y100.615 E3.41651
G1 X106.473 Y100.467 F15000.000
G1 E1.41651 F4800.00000
G92 E0
G1 X116.579 Y100.000 F15000.000
G1 E2.00000 F4800.00000
G1 X116.615 Y99.453 E2.02678 F780.000
G1 X116.722 Y98.916 E2.05356
G1 X116.898 Y98.398 E2.08035
G1 X117.140 Y97.906 E2.10713
G1 X117.434 Y97.467 E2.13297
G1 X117.804 Y97.040 E2.16060
G1 X118.217 Y96.678 E2.18747
G1 X118.673 Y96.374 E2.21425
G1 X119.164 Y96.132 E2.24103
G1 X119.682 Y95.956 E2.26781
G1 X120.220 Y95.849 E2.29460
G1 X120.747 Y95.814 E2.32044 F780.000
G1 X121.311 Y95.848 E2.34807
G1 X121.850 Y95.956 E2.37494
G1 X122.368 Y96.132 E2.40172
G1 X122.860 Y96.374 E2.42850
G1 X123.315 Y96.678 E2.45528
G1 X123.727 Y97.039 E2.48207
G1 X124.088 Y97.451 E2.50885
G1 X124.392 Y97.906 E2.53563
G1 X124.635 Y98.398 E2.56241
G1 X124.810 Y98.916 E2.58919
G1 X124.917 Y99.453 E2.61598
G1 X124.953 Y100.000 E2.64276
G1 X124.917 Y100.547 E2.66954
G1 X124.812 Y101.077 E2.69598
G1 X124.665 Y101.540 E2.71972
G1 X124.392 Y102.094 E2.74992
G1 X124.088 Y102.549 E2.77670
G1 X123.727 Y102.961 E2.80348
G1 X123.315 Y103.322 E2.83026
G1 X122.860 Y103.626 E2.85705
G1 X122.368 Y103.868 E2.88383
G1 X121.850 Y104.044 E2.91061
G1 X121.313 Y104.151 E2.93740
G1 X120.766 Y104.187 E2.96418
G1 X120.220 Y104.151 E2.99096
G1 X119.682 Y104.044 E3.01774
G1 X119.164 Y103.868 E3.04452
G1 X118.673 Y103.626 E3.07131
G1 X118.217 Y103.322 E3.09809
G1 X117.804 Y102.960 E3.12495
G1 X117.434 Y102.533 E3.15259
G1 X117.140 Y102.094 E3.17843
G1 X116.898 Y101.602 E3.20521
G1 X116.722 Y101.084 E3.23199
G1 X116.615 Y100.547 E3.25877
G1 X116.584 Y100.075 E3.28189
G1 X117.016 Y100.000 F15000.000
G1 X117.048 Y99.510 E3.30588 F780.000
G1 X117.143 Y99.029 E3.32987
G1 X117.301 Y98.565 E3.35386
G1 X117.518 Y98.125 E3.37785
G1 X117.781 Y97.732 E3.40095
G1 X118.114 Y97.348 E3.42579
G1 X118.483 Y97.024 E3.44981
G1 X118.891 Y96.752 E3.47380
G1 X119.331 Y96.535 E3.49779
G1 X119.795 Y96.377 E3.52178
G1 X120.277 Y96.282 E3.54577
G1 X120.748 Y96.251 E3.56887 F780.000
G1 X121.255 Y96.281 E3.59371
G1 X121.737 Y96.377 E3.61773
G1 X122.201 Y96.535 E3.64172
G1 X122.641 Y96.752 E3.66571
G1 X123.049 Y97.024 E3.68970
G1 X123.418 Y97.348 E3.71369
G1 X123.742 Y97.717 E3.73768
G1 X124.014 Y98.125 E3.76167
G1 X124.231 Y98.565 E3.78566
G1 X124.389 Y99.029 E3.80965
G1 X124.485 Y99.510 E3.83364
G1 X124.517 Y100.000 E3.85763
G1 X124.485 Y100.490 E3.88162
G1 X124.389 Y100.968 E3.90548
G1 X124.260 Y101.377 E3.92644
G1 X124.014 Y101.875 E3.95362
G1 X123.742 Y102.283 E3.97761
G1 X123.418 Y102.652 E4.00160
G1 X123.049 Y102.976 E4.02559
G1 X122.641 Y103.248 E4.04958
G1 X122.201 Y103.465 E4.07357
G1 X121.737 Y103.623 E4.09756
G1 X121.256 Y103.718 E4.12155
G1 X120.766 Y103.751 E4.14554
G1 X120.277 Y103.718 E4.16953
G1 X119.795 Y103.623 E4.19352
G1 X119.331 Y103.465 E4.21751
G1 X118.891 Y103.248 E4.24150
G1 X118.483 Y102.976 E4.26549
G1 X118.114 Y102.652 E4.28951
G1 X117.781 Y102.268 E4.31435
G1 X117.518 Y101.875 E4.33745
G1 X117.301 Y101.435 E4.36144
G1 X117.143 Y100.971 E4.38543
G1 X117.048 Y100.490 E4.40942
G1 X117.020 Y100.075 E4.42974
G1 X116.596 Y99.745 F15000.000
G1 E2.42974 F4800.00000
G92 E0
G1 X136.229 Y100.000 F15000.000
G1 E2.00000 F4800.00000
G1 X136.251 Y99.669 E2.01623 F780.000
G1 X136.315 Y99.343 E2.03246
G1 X136.422 Y99.029 E2.04869
G1 X136.569 Y98.731 E2.06492
G1 X136.753 Y98.456 E2.08114
G1 X136.972 Y98.206 E2.09737
G1 X137.222 Y97.987 E2.11359
G1 X137.486 Y97.811 E2.12913
G1 X137.793 Y97.657 E2.14594
G1 X138.110 Y97.549 E2.16228
G1 X138.435 Y97.485 E2.17850
G1 X138.752 Y97.464 E2.19404 F780.000
G1 X139.095 Y97.484 E2.21085
G1 X139.423 Y97.549 E2.22718
G1 X139.737 Y97.656 E2.24341
G1 X140.035 Y97.803 E2.25964
G1 X140.299 Y97.979 E2.27518
G1 X140.559 Y98.204 E2.29199
G1 X140.779 Y98.456 E2.30832
G1 X140.963 Y98.731 E2.32455
G1 X141.110 Y99.029 E2.34077
G1 X141.217 Y99.343 E2.35701
G1 X141.282 Y99.669 E2.37324
G1 X141.303 Y100.000 E2.38946
G1 X141.282 Y100.331 E2.40569
G1 X141.217 Y100.657 E2.42192
G1 X141.110 Y100.971 E2.43815
G1 X140.963 Y101.269 E2.45438
G1 X140.779 Y101.544 E2.47060
G1 X140.559 Y101.796 E2.48694
G1 X140.299 Y102.021 E2.50375
G1 X140.035 Y102.197 E2.51928
G1 X139.737 Y102.344 E2.53551
G1 X139.423 Y102.451 E2.55174
G1 X139.097 Y102.515 E2.56796
G1 X138.766 Y102.537 E2.58420
G1 X138.435 Y102.515 E2.60043
G1 X138.110 Y102.451 E2.61665
G1 X137.795 Y102.344 E2.63288
G1 X137.498 Y102.197 E2.64911
G1 X137.222 Y102.013 E2.66534
G1 X136.972 Y101.794 E2.68156
G1 X136.753 Y101.544 E2.69779
G1 X136.569 Y101.269 E2.71402
G1 X136.422 Y100.971 E2.73024
G1 X136.315 Y100.657 E2.74648
G1 X136.251 Y100.331 E2.76271
G1 X136.234 Y100.075 E2.77527
G1 X136.666 Y100.000 F15000.000
G1 X136.684 Y99.726 E2.78870 F780.000
G1 X136.737 Y99.456 E2.80214
G1 X136.825 Y99.196 E2.81558
G1 X136.947 Y98.950 E2.82901
G1 X137.100 Y98.721 E2.84245
G1 X137.281 Y98.515 E2.85588
G1 X137.487 Y98.334 E2.86932
G1 X137.705 Y98.188 E2.88212
G1 X137.962 Y98.060 E2.89614
G1 X138.222 Y97.971 E2.90962
G1 X138.492 Y97.917 E2.92305
G1 X138.753 Y97.900 E2.93586 F780.000
G1 X139.040 Y97.917 E2.94989
G1 X139.310 Y97.971 E2.96336
G1 X139.570 Y98.059 E2.97679
G1 X139.816 Y98.181 E2.99023
G1 X140.034 Y98.326 E3.00304
G1 X140.251 Y98.514 E3.01706
G1 X140.433 Y98.721 E3.03053
G1 X140.585 Y98.950 E3.04397
G1 X140.707 Y99.196 E3.05740
G1 X140.795 Y99.456 E3.07084
G1 X140.849 Y99.726 E3.08428
G1 X140.867 Y100.000 E3.09771
G1 X140.849 Y100.274 E3.11115
G1 X140.795 Y100.544 E3.12458
G1 X140.707 Y100.804 E3.13802
G1 X140.585 Y101.050 E3.15146
G1 X140.433 Y101.279 E3.16489
G1 X140.251 Y101.486 E3.17837
G1 X140.034 Y101.674 E3.19239
G1 X139.816 Y101.819 E3.20519
G1 X139.570 Y101.941 E3.21863
G1 X139.310 Y102.029 E3.23207
G1 X139.040 Y102.083 E3.24550
G1 X138.766 Y102.101 E3.25894
G1 X138.492 Y102.083 E3.27237
G1 X138.222 Y102.029 E3.28581
G1 X137.962 Y101.941 E3.29924
G1 X137.716 Y101.819 E3.31268
G1 X137.487 Y101.666 E3.32612
G1 X137.281 Y101.485 E3.33955
G1 X137.100 Y101.279 E3.35299
G1 X136.947 Y101.050 E3.36642
G1 X136.825 Y100.804 E3.37986
G1 X136.737 Y100.544 E3.39329
G1 X136.684 Y100.274 E3.40673
G1 X136.670 Y100.075 E3.41650
G1 X136.431 Y99.857 F15000.000
G1 E1.41650 F4800.00000
G92 E0
G1 X81.303 Y100.000 F15000.000
G1 E2.00000 F4800.00000
G1 X81.282 Y100.331 E2.01623 F780.000
G1 X81.217 Y100.657 E2.03246
G1 X81.110 Y100.971 E2.04869
G1 X80.963 Y101.269 E2.06492
G1 X80.779 Y101.544 E2.08114
G1 X80.560 Y101.794 E2.09737
G1 X80.311 Y102.013 E2.11360
G1 X80.035 Y102.197 E2.12982
G1 X79.737 Y102.344 E2.14605
G1 X79.423 Y102.451 E2.16228
G1 X79.097 Y102.515 E2.17851
G1 X78.766 Y102.537 E2.19474
G1 X78.435 Y102.515 E2.21097
G1 X78.110 Y102.451 E2.22719
G1 X77.795 Y102.344 E2.24342
G1 X77.498 Y102.197 E2.25965
G1 X77.222 Y102.013 E2.27588
G1 X76.972 Y101.794 E2.29210
G1 X76.753 Y101.544 E2.30834
G1 X76.569 Y101.269 E2.32456
G1 X76.421 Y100.969 E2.34089
G1 X76.313 Y100.643 E2.35771
G1 X76.251 Y100.331 E2.37325
G1 X76.229 Y100.000 E2.38947
G1 X76.251 Y99.669 E2.40570
G1 X76.315 Y99.343 E2.42193
G1 X76.422 Y99.029 E2.43816
G1 X76.569 Y98.731 E2.45439
G1 X76.753 Y98.456 E2.47061
G1 X76.972 Y98.206 E2.48684
G1 X77.222 Y97.987 E2.50307
G1 X77.498 Y97.803 E2.51930
G1 X77.795 Y97.656 E2.53552
G1 X78.110 Y97.549 E2.55176
G1 X78.435 Y97.485 E2.56798
G1 X78.752 Y97.464 E2.58351 F780.000
G1 X79.095 Y97.484 E2.60033
G1 X79.423 Y97.549 E2.61666
G1 X79.737 Y97.656 E2.63289
G1 X80.035 Y97.803 E2.64912
G1 X80.311 Y97.987 E2.66535
G1 X80.560 Y98.206 E2.68157
G1 X80.779 Y98.456 E2.69780
G1 X80.963 Y98.731 E2.71403
G1 X81.110 Y99.029 E2.73025
G1 X81.217 Y99.343 E2.74649
G1 X81.282 Y99.669 E2.76272
G1 X81.298 Y99.925 E2.77528
G1 X80.867 Y100.000 F15000.000
G1 X80.849 Y100.274 E2.78871 F780.000
G1 X80.795 Y100.544 E2.80215
G1 X80.707 Y100.804 E2.81558
G1 X80.585 Y101.050 E2.82902
G1 X80.433 Y101.279 E2.84246
G1 X80.251 Y101.485 E2.85589
G1 X80.045 Y101.666 E2.86933
G1 X79.816 Y101.819 E2.88276
G1 X79.570 Y101.941 E2.89620
G1 X79.310 Y102.029 E2.90963
G1 X79.040 Y102.083 E2.92307
G1 X78.766 Y102.101 E2.93651
G1 X78.492 Y102.083 E2.94994
G1 X78.222 Y102.029 E2.96338
G1 X77.962 Y101.941 E2.97681
G1 X77.716 Y101.819 E2.99025
G1 X77.487 Y101.666 E3.00369
G1 X77.281 Y101.485 E3.01712
G1 X77.100 Y101.279 E3.03056
G1 X76.947 Y101.050 E3.04399
G1 X76.825 Y100.803 E3.05746
G1 X76.735 Y100.531 E3.07149
G1 X76.684 Y100.274 E3.08430
G1 X76.666 Y100.000 E3.09773
G1 X76.684 Y99.726 E3.11117
G1 X76.737 Y99.456 E3.12460
G1 X76.825 Y99.196 E3.13804
G1 X76.947 Y98.950 E3.15148
G1 X77.100 Y98.721 E3.16491
G1 X77.281 Y98.515 E3.17835
G1 X77.487 Y98.334 E3.19178
G1 X77.716 Y98.181 E3.20522
G1 X77.962 Y98.059 E3.21865
G1 X78.222 Y97.971 E3.23209
G1 X78.492 Y97.917 E3.24552
G1 X78.753 Y97.900 E3.25833 F780.000
G1 X79.040 Y97.917 E3.27235
