; generated by Slic3r 1.2.9 on 2015-09-07 at 11:36:02

; external perimeters extrusion width = 0.50mm
; perimeters extrusion width = 0.50mm
; infill extrusion width = 0.50mm
; solid infill extrusion width = 0.50mm
; top infill extrusion width = 0.50mm

M107
M190 S105 ; set bed temperature
M104 S240 ; set temperature
G28 X0 Y0
G28 Z0
G1 Z0.3 F200
G1 X15 Y20 F12000
M109 S240 ; wait for temperature to be reached
G21 ; set units to millimeters
G90 ; use absolute coordinates
M82 ; use absolute distances for extrusion
G92 E0
G1 Z0.300 F15000.000
G1 E-2.00000 F4800.00000
G92 E0
G1 X93.650 Y85.110 F15000.000
G1 E2.00000 F4800.00000
G1 X94.363 Y84.374 E2.05010 F600.000
G1 X95.110 Y83.674 E2.10019
G1 X95.891 Y83.011 E2.15026
G1 X96.433 Y82.588 E2.18386
G1 X97.237 Y82.011 E2.23227
G1 X98.127 Y81.437 E2.28406
G1 X99.014 Y80.924 E2.33415
G1 X99.925 Y80.456 E2.38426
G1 X100.858 Y80.034 E2.43431
G1 X101.811 Y79.658 E2.48442
G1 X102.780 Y79.329 E2.53448
G1 X103.766 Y79.047 E2.58463
G1 X105.094 Y78.749 E2.65116
G1 X106.105 Y78.582 E2.70127
G1 X107.123 Y78.465 E2.75137
G1 X108.144 Y78.398 E2.80142
G1 X109.169 Y78.381 E2.85155
G1 X109.856 Y78.398 E2.88516 F600.000
G1 X110.877 Y78.465 E2.93520
G1 X112.229 Y78.631 E3.00181
G1 X112.906 Y78.749 E3.03542
G1 X113.908 Y78.965 E3.08551
G1 X115.220 Y79.329 E3.15208
G1 X115.872 Y79.544 E3.18569
G1 X116.830 Y79.905 E3.23575
G1 X117.771 Y80.313 E3.28586
G1 X118.689 Y80.765 E3.33591
G1 X119.873 Y81.437 E3.40250
G1 X120.454 Y81.804 E3.43611
G1 X121.297 Y82.387 E3.48621
G1 X122.109 Y83.011 E3.53631
G1 X122.890 Y83.674 E3.58637
G1 X123.876 Y84.613 E3.65296
G1 X124.350 Y85.110 E3.68657
G1 X125.025 Y85.881 E3.73666
G1 X125.863 Y86.953 E3.80321
G1 X126.258 Y87.515 E3.83681
G1 X126.813 Y88.377 E3.88692
G1 X127.485 Y89.561 E3.95351
G1 X127.937 Y90.479 E4.00356
G1 X128.345 Y91.420 E4.05367
G1 X128.706 Y92.378 E4.10373
G1 X128.922 Y93.031 E4.13736
G1 X129.203 Y94.016 E4.18748
G1 X129.487 Y95.265 E4.25012
G1 X131.756 Y107.497 E4.85843
G1 X131.871 Y108.750 E4.91998
G1 X131.871 Y132.750 E6.09357
G1 X131.474 Y135.052 E6.20780
G1 X130.329 Y137.088 E6.32203
G1 X128.568 Y138.623 E6.43626
G1 X126.394 Y139.478 E6.55049
G1 X125.000 Y139.621 E6.61901
G1 X93.000 Y139.621 E8.18379
G1 X90.698 Y139.224 E8.29802
G1 X88.662 Y138.079 E8.41225
G1 X87.127 Y136.318 E8.52648
G1 X86.272 Y134.144 E8.64071
G1 X86.129 Y132.750 E8.70923
G1 X86.129 Y108.750 E9.88282
G1 X86.244 Y107.497 E9.94437
G1 X88.513 Y95.265 E10.55267
G1 X88.797 Y94.016 E10.61532
G1 X89.079 Y93.030 E10.66546
G1 X89.408 Y92.061 E10.71553
G1 X89.784 Y91.108 E10.76564
G1 X90.063 Y90.479 E10.79925
G1 X90.515 Y89.561 E10.84930
G1 X91.013 Y88.666 E10.89941
G1 X91.554 Y87.796 E10.94949
G1 X92.137 Y86.953 E10.99959
G1 X92.761 Y86.141 E11.04970
G1 X93.600 Y85.166 E11.11258
G1 X93.966 Y85.411 F15000.000
G1 X94.663 Y84.689 E11.16163 F600.000
G1 X95.395 Y84.003 E11.21068
G1 X96.159 Y83.355 E11.25970
G1 X96.701 Y82.932 E11.29330
G1 X97.488 Y82.368 E11.34067
G1 X98.360 Y81.805 E11.39141
G1 X99.228 Y81.304 E11.44045
G1 X100.121 Y80.846 E11.48951
G1 X101.034 Y80.432 E11.53852
G1 X101.967 Y80.064 E11.58758
G1 X102.917 Y79.742 E11.63660
G1 X103.882 Y79.467 E11.68570
G1 X105.168 Y79.178 E11.75014
G1 X106.158 Y79.014 E11.79921
G1 X107.155 Y78.899 E11.84827
G1 X108.155 Y78.833 E11.89727
G1 X109.158 Y78.816 E11.94635
G1 X109.845 Y78.833 E11.97996 F600.000
G1 X110.845 Y78.899 E12.02896
G1 X112.155 Y79.061 E12.09347
G1 X112.832 Y79.178 E12.12708
G1 X113.812 Y79.390 E12.17613
G1 X115.083 Y79.742 E12.24061
G1 X115.736 Y79.958 E12.27422
G1 X116.674 Y80.311 E12.32324
G1 X117.594 Y80.711 E12.37230
G1 X118.493 Y81.154 E12.42131
G1 X119.640 Y81.805 E12.48580
G1 X120.221 Y82.172 E12.51941
G1 X121.046 Y82.744 E12.56847
G1 X122.085 Y83.555 E12.63294
G1 X122.839 Y84.216 E12.68199
G1 X123.337 Y84.689 E12.71559
G1 X124.247 Y85.645 E12.78008
G1 X124.895 Y86.409 E12.82910
G1 X125.506 Y87.204 E12.87815
G1 X125.902 Y87.766 E12.91176
G1 X126.445 Y88.610 E12.96082
G1 X127.096 Y89.757 E13.02532
G1 X127.539 Y90.656 E13.07432
G1 X127.939 Y91.576 E13.12339
G1 X128.292 Y92.514 E13.17241
G1 X128.508 Y93.167 E13.20603
G1 X128.783 Y94.132 E13.25511
G1 X129.059 Y95.345 E13.31591
G1 X131.328 Y107.576 E13.92421
G1 X131.436 Y108.750 E13.98186
G1 X131.436 Y132.750 E15.15545
G1 X131.039 Y134.975 E15.26597
G1 X129.897 Y136.926 E15.37649
G1 X128.151 Y138.361 E15.48702
G1 X125.000 Y139.186 E15.64630
G1 X93.000 Y139.186 E17.21108
G1 X90.775 Y138.789 E17.32160
G1 X88.824 Y137.647 E17.43213
G1 X87.389 Y135.901 E17.54265
G1 X86.564 Y132.750 E17.70193
G1 X86.564 Y108.750 E18.87552
G1 X86.672 Y107.576 E18.93316
G1 X88.941 Y95.345 E19.54147
G1 X89.217 Y94.132 E19.60227
G1 X89.492 Y93.167 E19.65137
G1 X89.814 Y92.217 E19.70039
G1 X90.182 Y91.284 E19.74945
G1 X90.461 Y90.656 E19.78307
G1 X90.905 Y89.757 E19.83207
G1 X91.392 Y88.880 E19.88113
G1 X91.922 Y88.029 E19.93017
G1 X92.494 Y87.204 E19.97923
G1 X93.105 Y86.409 E20.02829
G1 X93.915 Y85.466 E20.08908
G1 E18.08908 F4800.00000
G92 E0
G1 X93.475 Y106.970 F15000.000
G1 E2.00000 F4800.00000
G1 X93.475 Y98.197 E2.42899 F600.000
G1 X93.523 Y98.094 E2.43455
G1 X93.641 Y96.991 E2.48881
G1 X93.770 Y96.240 E2.52607
G1 X93.945 Y95.460 E2.56516
G1 X94.149 Y94.725 E2.60242
G1 X94.389 Y94.002 E2.63968
G1 X94.650 Y93.326 E2.67511
G1 X94.974 Y92.595 E2.71420
G1 X95.300 Y91.948 E2.74963
G1 X95.674 Y91.285 E2.78690
G1 X96.102 Y90.609 E2.82599
G1 X96.519 Y90.017 E2.86142
G1 X96.988 Y89.416 E2.89869
G1 X97.484 Y88.838 E2.93594
G1 X98.009 Y88.286 E2.97320
G1 X98.588 Y87.734 E3.01229
G1 X99.137 Y87.261 E3.04772
G1 X99.737 Y86.792 E3.08498
G1 X100.391 Y86.331 E3.12408
G1 X101.035 Y85.924 E3.16134
G1 X101.698 Y85.550 E3.19860
G1 X102.379 Y85.208 E3.23586
G1 X103.076 Y84.900 E3.27312
G1 X103.787 Y84.627 E3.31038
G1 X104.475 Y84.399 E3.34581
G1 X105.246 Y84.186 E3.38490
G1 X105.953 Y84.027 E3.42033
G1 X106.703 Y83.896 E3.45759
G1 X107.497 Y83.798 E3.49669
G1 X108.257 Y83.743 E3.53394
G1 X109.019 Y83.725 E3.57121
G1 X109.743 Y83.743 E3.60664
G1 X110.503 Y83.798 E3.64390
G1 X111.296 Y83.896 E3.68299
G1 X112.047 Y84.027 E3.72025
G1 X112.790 Y84.195 E3.75751
G1 X113.489 Y84.388 E3.79294
G1 X114.213 Y84.627 E3.83021
G1 X114.958 Y84.914 E3.86930
G1 X115.655 Y85.224 E3.90655
G1 X116.335 Y85.567 E3.94381
G1 X116.965 Y85.924 E3.97925
G1 X117.609 Y86.331 E4.01651
G1 X118.233 Y86.769 E4.05377
G1 X118.834 Y87.237 E4.09103
G1 X119.440 Y87.760 E4.13012
G1 X119.991 Y88.286 E4.16738
G1 X120.516 Y88.838 E4.20464
G1 X120.989 Y89.387 E4.24007
G1 X121.481 Y90.017 E4.27917
G1 X121.919 Y90.641 E4.31643
G1 X122.326 Y91.285 E4.35369
G1 X122.683 Y91.915 E4.38912
G1 X123.042 Y92.629 E4.42820
G1 X123.336 Y93.292 E4.46364
G1 X123.611 Y94.002 E4.50090
G1 X123.862 Y94.761 E4.54000
G1 X124.064 Y95.496 E4.57725
G1 X124.223 Y96.203 E4.61268
G1 X124.359 Y96.991 E4.65177
G1 X124.477 Y98.094 E4.70603
G1 X124.525 Y98.197 E4.71159
G1 X124.525 Y106.970 E5.14058
G1 X124.780 Y107.225 E5.15823
G1 X125.632 Y107.225 E5.19988
G1 X126.525 Y108.118 E5.26164
G1 X126.525 Y133.382 E6.49699
G1 X125.632 Y134.275 E6.55876
G1 X92.368 Y134.275 E8.18531
G1 X91.475 Y133.382 E8.24707
G1 X91.475 Y108.118 E9.48243
G1 X92.368 Y107.225 E9.54419
G1 X93.220 Y107.225 E9.58584
G1 X93.422 Y107.023 E9.59982
G1 X93.911 Y107.406 F15000.000
G1 X93.911 Y98.362 E10.04204 F600.000
G1 X93.945 Y98.287 E10.04606
G1 X93.985 Y97.758 E10.07204
G1 X94.072 Y97.049 E10.10695
G1 X94.198 Y96.319 E10.14317
G1 X94.360 Y95.597 E10.17938
G1 X94.557 Y94.883 E10.21559
G1 X94.798 Y94.154 E10.25312
G1 X95.054 Y93.488 E10.28803
G1 X95.354 Y92.811 E10.32425
G1 X95.699 Y92.125 E10.36176
G1 X96.065 Y91.481 E10.39798
G1 X96.446 Y90.878 E10.43289
G1 X96.888 Y90.251 E10.47041
G1 X97.328 Y89.688 E10.50532
G1 X97.811 Y89.127 E10.54153
G1 X98.340 Y88.571 E10.57906
G1 X98.877 Y88.061 E10.61527
G1 X99.438 Y87.578 E10.65148
G1 X100.022 Y87.122 E10.68770
G1 X100.606 Y86.711 E10.72261
G1 X101.231 Y86.315 E10.75883
G1 X101.875 Y85.949 E10.79504
G1 X102.537 Y85.615 E10.83126
G1 X103.213 Y85.315 E10.86747
G1 X103.929 Y85.039 E10.90499
G1 X104.607 Y84.815 E10.93990
G1 X105.321 Y84.616 E10.97612
G1 X106.043 Y84.453 E11.01233
G1 X106.773 Y84.326 E11.04855
G1 X107.534 Y84.232 E11.08607
G1 X108.273 Y84.179 E11.12229
G1 X109.013 Y84.161 E11.15850
G1 X109.727 Y84.179 E11.19341
G1 X110.466 Y84.232 E11.22962
G1 X111.227 Y84.326 E11.26715
G1 X111.957 Y84.453 E11.30337
G1 X112.653 Y84.610 E11.33827
G1 X113.367 Y84.807 E11.37448
G1 X114.071 Y85.039 E11.41071
G1 X114.787 Y85.315 E11.44823
G1 X115.463 Y85.615 E11.48444
G1 X116.125 Y85.949 E11.52065
G1 X116.746 Y86.301 E11.55556
G1 X117.372 Y86.696 E11.59178
G1 X117.978 Y87.122 E11.62800
G1 X118.562 Y87.578 E11.66421
G1 X119.143 Y88.079 E11.70173
G1 X119.679 Y88.590 E11.73795
G1 X120.171 Y89.107 E11.77286
G1 X120.655 Y89.667 E11.80907
G1 X121.128 Y90.272 E11.84660
G1 X121.554 Y90.878 E11.88281
G1 X121.935 Y91.481 E11.91772
G1 X122.301 Y92.125 E11.95393
G1 X122.646 Y92.811 E11.99145
G1 X122.935 Y93.463 E12.02636
G1 X123.202 Y94.154 E12.06258
G1 X123.443 Y94.883 E12.10011
G1 X123.634 Y95.571 E12.13501
G1 X123.797 Y96.293 E12.17122
G1 X123.928 Y97.049 E12.20875
G1 X124.015 Y97.758 E12.24366
G1 X124.055 Y98.287 E12.26963
G1 X124.089 Y98.362 E12.27366
G1 X124.089 Y107.406 E12.71588
G1 X124.344 Y107.661 E12.73353
G1 X125.451 Y107.661 E12.78765
G1 X126.089 Y108.299 E12.83177
G1 X126.089 Y133.201 E14.04948
G1 X125.451 Y133.839 E14.09359
G1 X92.549 Y133.839 E15.70250
G1 X91.911 Y133.201 E15.74661
G1 X91.911 Y108.299 E16.96432
G1 X92.549 Y107.661 E17.00844
G1 X93.656 Y107.661 E17.06256
G1 X93.858 Y107.459 E17.07654
G1 X94.347 Y107.841 F15000.000
G1 X94.347 Y98.527 E17.53200 F600.000
G1 X94.368 Y98.481 E17.53449
G1 X94.418 Y97.806 E17.56760
G1 X94.506 Y97.092 E17.60277
G1 X94.630 Y96.383 E17.63794
G1 X94.788 Y95.682 E17.67311
G1 X94.980 Y94.989 E17.70828
G1 X95.200 Y94.321 E17.74267
G1 X95.465 Y93.635 E17.77862
G1 X95.750 Y92.992 E17.81301
G1 X96.073 Y92.350 E17.84817
G1 X96.427 Y91.724 E17.88334
G1 X96.793 Y91.146 E17.91677
G1 X97.235 Y90.514 E17.95447
G1 X97.668 Y89.960 E17.98886
G1 X98.137 Y89.415 E18.02402
G1 X98.644 Y88.883 E18.05998
G1 X99.153 Y88.398 E18.09436
G1 X99.698 Y87.928 E18.12953
G1 X100.264 Y87.485 E18.16470
G1 X100.818 Y87.095 E18.19780
G1 X101.474 Y86.677 E18.23582
G1 X102.085 Y86.331 E18.27021
G1 X102.728 Y86.007 E18.30538
G1 X103.385 Y85.715 E18.34055
G1 X104.056 Y85.456 E18.37572
G1 X104.754 Y85.225 E18.41167
G1 X105.447 Y85.034 E18.44684
G1 X106.149 Y84.877 E18.48201
G1 X106.842 Y84.756 E18.51640
G1 X107.556 Y84.668 E18.55157
G1 X108.273 Y84.615 E18.58674
G1 X108.992 Y84.597 E18.62191
G1 X109.711 Y84.614 E18.65708
G1 X110.428 Y84.666 E18.69224
G1 X111.158 Y84.756 E18.72820
G1 X111.851 Y84.877 E18.76259
G1 X112.553 Y85.034 E18.79776
G1 X113.246 Y85.225 E18.83292
G1 X113.929 Y85.450 E18.86810
G1 X114.615 Y85.715 E18.90405
G1 X115.272 Y86.007 E18.93922
G1 X115.915 Y86.331 E18.97439
G1 X116.526 Y86.677 E19.00878
G1 X117.134 Y87.062 E19.04394
G1 X117.723 Y87.475 E19.07912
G1 X118.290 Y87.918 E19.11429
G1 X118.835 Y88.387 E19.14945
G1 X119.367 Y88.894 E19.18541
G1 X119.852 Y89.403 E19.21979
G1 X120.322 Y89.948 E19.25496
G1 X120.775 Y90.527 E19.29092
G1 X121.188 Y91.116 E19.32609
G1 X121.565 Y91.710 E19.36047
G1 X121.919 Y92.335 E19.39564
G1 X122.250 Y92.992 E19.43159
G1 X122.535 Y93.635 E19.46598
G1 X122.794 Y94.306 E19.50115
G1 X123.025 Y95.004 E19.53711
G1 X123.212 Y95.682 E19.57149
G1 X123.370 Y96.383 E19.60666
G1 X123.496 Y97.108 E19.64262
G1 X123.582 Y97.806 E19.67700
G1 X123.632 Y98.481 E19.71011
G1 X123.653 Y98.527 E19.71260
G1 X123.653 Y107.841 E20.16806
G1 X123.909 Y108.097 E20.18570
G1 X125.271 Y108.097 E20.25231
G1 X125.653 Y108.479 E20.27878
G1 X125.653 Y133.021 E21.47884
G1 X125.271 Y133.403 E21.50531
G1 X92.729 Y133.403 E23.09657
G1 X92.347 Y133.021 E23.12304
G1 X92.347 Y108.479 E24.32310
G1 X92.729 Y108.097 E24.34957
G1 X94.091 Y108.097 E24.41617
G1 X94.294 Y107.894 E24.43015
G1 X94.782 Y108.277 F15000.000
G1 X94.782 Y98.691 E24.89890 F600.000
G1 X94.851 Y97.854 E24.93998
G1 X94.936 Y97.166 E24.97384
G1 X95.055 Y96.479 E25.00797
G1 X95.209 Y95.793 E25.04235
G1 X95.395 Y95.120 E25.07648
G1 X95.612 Y94.463 E25.11034
G1 X95.865 Y93.807 E25.14473
G1 X96.146 Y93.174 E25.17859
G1 X96.460 Y92.550 E25.21271
G1 X96.804 Y91.943 E25.24684
G1 X97.177 Y91.353 E25.28096
G1 X97.582 Y90.778 E25.31535
G1 X98.008 Y90.232 E25.34921
G1 X98.464 Y89.704 E25.38333
G1 X98.948 Y89.195 E25.41772
G1 X99.450 Y88.717 E25.45158
G1 X99.978 Y88.261 E25.48571
G1 X100.528 Y87.832 E25.51983
G1 X101.099 Y87.430 E25.55396
G1 X101.693 Y87.054 E25.58834
G1 X102.295 Y86.712 E25.62220
G1 X102.919 Y86.398 E25.65633
G1 X103.557 Y86.115 E25.69045
G1 X104.208 Y85.864 E25.72458
G1 X104.875 Y85.644 E25.75896
G1 X105.548 Y85.458 E25.79309
G1 X106.229 Y85.305 E25.82721
G1 X106.911 Y85.186 E25.86107
G1 X107.604 Y85.101 E25.89520
G1 X108.300 Y85.049 E25.92932
G1 X108.997 Y85.032 E25.96345
G1 X109.695 Y85.049 E25.99757
G1 X110.391 Y85.100 E26.03170
G1 X111.089 Y85.186 E26.06608
G1 X111.771 Y85.305 E26.09995
G1 X112.452 Y85.458 E26.13407
G1 X113.125 Y85.644 E26.16819
G1 X113.787 Y85.862 E26.20232
G1 X114.443 Y86.115 E26.23670
G1 X115.076 Y86.396 E26.27057
G1 X115.705 Y86.712 E26.30495
G1 X116.312 Y87.056 E26.33908
G1 X116.897 Y87.427 E26.37294
G1 X117.467 Y87.829 E26.40706
G1 X118.018 Y88.258 E26.44119
G1 X118.550 Y88.717 E26.47557
G1 X119.052 Y89.195 E26.50944
G1 X119.533 Y89.700 E26.54356
G1 X119.992 Y90.232 E26.57794
G1 X120.418 Y90.778 E26.61181
G1 X120.820 Y91.349 E26.64593
G1 X121.194 Y91.938 E26.68006
G1 X121.540 Y92.550 E26.71444
G1 X121.852 Y93.169 E26.74831
G1 X122.135 Y93.807 E26.78243
G1 X122.388 Y94.463 E26.81682
G1 X122.605 Y95.120 E26.85068
G1 X122.791 Y95.793 E26.88480
G1 X122.945 Y96.479 E26.91919
G1 X123.064 Y97.161 E26.95305
G1 X123.147 Y97.836 E26.98630
G1 X123.218 Y98.691 E27.02826
G1 X123.218 Y108.277 E27.49701
G1 X123.473 Y108.532 E27.51465
G1 X125.090 Y108.532 E27.59374
G1 X125.218 Y108.660 E27.60256
G1 X125.218 Y132.840 E28.78497
G1 X125.090 Y132.968 E28.79380
G1 X92.910 Y132.968 E30.36741
G1 X92.782 Y132.840 E30.37623
G1 X92.782 Y108.660 E31.55864
G1 X92.910 Y108.532 E31.56747
G1 X94.527 Y108.532 E31.64655
G1 X94.729 Y108.330 E31.66053
G1 E29.66053 F4800.00000
G92 E0
G1 X122.794 Y127.544 F15000.000
G1 E2.00000 F4800.00000
G1 X122.545 Y127.763 E2.01623 F780.000
G1 X122.269 Y127.947 E2.03245
G1 X121.971 Y128.094 E2.04868
G1 X121.657 Y128.201 E2.06491
G1 X121.331 Y128.265 E2.08114
G1 X121.000 Y128.287 E2.09737
G1 X120.669 Y128.265 E2.11360
G1 X120.343 Y128.201 E2.12982
G1 X120.029 Y128.094 E2.14606
G1 X119.731 Y127.947 E2.16229
G1 X119.456 Y127.763 E2.17851
G1 X119.206 Y127.544 E2.19474
G1 X118.987 Y127.295 E2.21096
G1 X118.803 Y127.019 E2.22719
G1 X118.656 Y126.721 E2.24341
G1 X118.549 Y126.407 E2.25965
G1 X118.485 Y126.081 E2.27588
G1 X118.463 Y125.750 E2.29211
G1 X118.485 Y125.419 E2.30833
G1 X118.549 Y125.093 E2.32456
G1 X118.656 Y124.779 E2.34080
G1 X118.803 Y124.481 E2.35702
G1 X118.987 Y124.205 E2.37325
G1 X119.206 Y123.956 E2.38947
G1 X119.456 Y123.737 E2.40570
G1 X119.731 Y123.553 E2.42193
G1 X120.029 Y123.406 E2.43815
G1 X120.343 Y123.299 E2.45439
G1 X120.669 Y123.235 E2.47062
G1 X121.000 Y123.213 E2.48684 F780.000
G1 X121.331 Y123.235 E2.50307
G1 X121.657 Y123.299 E2.51930
G1 X121.971 Y123.406 E2.53554
G1 X122.269 Y123.553 E2.55176
G1 X122.545 Y123.737 E2.56799
G1 X122.794 Y123.956 E2.58421
G1 X123.013 Y124.205 E2.60044
G1 X123.197 Y124.481 E2.61666
G1 X123.344 Y124.779 E2.63289
G1 X123.451 Y125.093 E2.64913
G1 X123.515 Y125.419 E2.66535
G1 X123.537 Y125.750 E2.68158
G1 X123.515 Y126.081 E2.69781
G1 X123.451 Y126.407 E2.71403
G1 X123.344 Y126.721 E2.73027
G1 X123.197 Y127.019 E2.74650
G1 X123.013 Y127.294 E2.76272
G1 X122.843 Y127.488 E2.77528
G1 X122.485 Y127.235 F15000.000
G1 X122.279 Y127.416 E2.78872 F780.000
G1 X122.050 Y127.569 E2.80215
G1 X121.804 Y127.691 E2.81558
G1 X121.544 Y127.779 E2.82902
G1 X121.274 Y127.833 E2.84246
G1 X121.000 Y127.851 E2.85590
G1 X120.726 Y127.833 E2.86933
G1 X120.456 Y127.779 E2.88277
G1 X120.196 Y127.691 E2.89621
